/* XPM */
static char *result[] = {
/* columns rows colors chars-per-pixel */
"64 64 10 1 ",
"  c #0DFF00",
". c black",
"X c #E8E8F8",
"o c #283070",
"O c #3060C0",
"+ c #484858",
"@ c #98A0A8",
"# c #C8D0D8",
"$ c #2878C0",
"% c white",
/* pixels */
"                                                                ",
"                                                                ",
"                                                                ",
"                                                                ",
"                                                                ",
"                                                                ",
"                                                                ",
"                                                                ",
"                                                                ",
"                                                                ",
"                                                                ",
"                                                                ",
"                                                                ",
"                                                                ",
"                                                                ",
"                                                                ",
"                                                                ",
"                                                                ",
"                                                                ",
"                                                                ",
"                                                                ",
"                                                                ",
"                                                                ",
"                                                                ",
"                                                                ",
"                                                                ",
"                               ..                               ",
"                              .X.                               ",
"                          ..o .X.o..                            ",
"                          .OOoXXoOO.                            ",
"                           .OoXXoO.                             ",
"                            oOXXO.                              ",
"                             +XX+                               ",
"                            +XXX+                               ",
"                            +XX..                               ",
"                            +X.XX.                              ",
"                           +XX.XX.                              ",
"                           +X.XXXX.                             ",
"                           +X.XXXX.                             ",
"                         ..+.XXXXXX. ..                         ",
"                         .O.@XXXXXX@.O.                         ",
"                         .O.XXXXXXXX.O.                         ",
"                         .OOoXXXXXXoOO.                         ",
"                        +.OXoXXXXXXoXO.+                        ",
"                       +XoOXOOXXXXOOXOoX+                       ",
"                      +XXX.@.OXXXXO.@.XXX+                      ",
"                      +XXX.@.oXXXXo.@.XXX+                      ",
"                     +#XXX+.#oXXXXo#.+XXX#+                     ",
"                     +##XX+#.@####@.#+XX##+                     ",
"                    .###X.@#$..##..$#@.X###.                    ",
"                    +####.@$$$$..$$$$@.####+                    ",
"                   .#####.@+$$$$$$$$+@.#####.                   ",
"                   +#####+@@..$$$$..@@+#####+                   ",
"                  .#####. ..@+....+@.. .#####.                  ",
"                  .#####. +@@+    +@@+ .#####.                  ",
"                 +######. +++      +++ .######+                 ",
"                 .######+              +######.                 ",
"                 .#@#####+            +#####@#.                 ",
"                 .#@###@#+            +#@###@#.                 ",
"                  ..#@#+@.            .@+#@#..                  ",
"                   .#+##.              .##+#.                   ",
"                    ..##.              .##..                    ",
"                      ..                ..                      ",
"                                                                "
};
