/* XPM */
static char *result[] = {
/* columns rows colors chars-per-pixel */
"64 64 10 1 ",
"  c #0DFF00",
". c black",
"X c #E8E8F8",
"o c #484858",
"O c #C8D0D8",
"+ c #98A0A8",
"@ c #283070",
"# c #3060C0",
"$ c #2878C0",
"% c white",
/* pixels */
"                                                                ",
"                                                                ",
"                                                                ",
"                                                                ",
"                                                                ",
"                                                                ",
"                                                                ",
"                                                                ",
"                                                                ",
"                                                                ",
"                                                                ",
"                                                                ",
"                                                                ",
"                                                                ",
"                                                                ",
"                                                                ",
"                                                                ",
"                                                                ",
"                                                                ",
"                                                                ",
"                                                                ",
"                                                                ",
"                                                                ",
"                                                                ",
"               ..                              ..               ",
"              .XX.                            .XX.              ",
"             .XXX.                            .XXX.             ",
"            o.XXX.                            .XXX.o            ",
"           oXoXXX.             ..             .XXXoXo           ",
"           oXO+X..            .X.             ..X+OXo           ",
"           .XX+.XX.       ..@ .X.@..         .XX.+XX.           ",
"           .XX.XXX.       .##@XX@##.         .XXX.XX.           ",
"          oXoX.XXX.        .#@XX@#.          .XXX.XoXo          ",
"          .XoOO.XXX.        @#XX#.          .XXX.OOoX.          ",
"          .XX+OoXXX.         oXXo           .XXXoO+XX.          ",
"          o.XOOOoXXX.       oXXXo          .XXXoOOOX.o          ",
"          o.OOOO+XXX.       oXX..          .XXX+OOOO.o          ",
"          .OoOOOOOXXX.      oX.XX.        .XXXOOOOOoO.          ",
"          .OOOOOOOOXXOo    oXX.XX.       oOXXOOOOOOOO.          ",
"           .OOOOOOOOOO.    oX.XXXX.      .OOOOOOOOOO.           ",
"            .oOOOOOOOOO.   oX.XXXX.     .OOOOOOOOOo.            ",
"              ooOOOOOOO. ..o.XXXXXX. .. .OOOOOOOoo              ",
"                oOOOOOOOo.#.+XXXXXX+.#.oOOOOOOOo                ",
"                 ooOOOOOo.#.XXXXXXXX.#.oOOOOOoo                 ",
"                   oOOOOO.##@XXXXXX@##.OOOOOo                   ",
"                    o.OOO.#X@XXXXXX@X#.OOO.o                    ",
"                      ..O@#X##XXXX##X#@O..                      ",
"                        .+.+.#XXXX#.+.+.                        ",
"                         o.+.@XXXX@.+.o                         ",
"                         oO.O@XXXX@O.Oo                         ",
"                        o+OO.+OOOO+.OO+o                        ",
"                        o++O$..OO..$O++o                        ",
"                        o++$$$$..$$$$++o                        ",
"                        o++o$$$$$$$$o++o                        ",
"                         o++..$$$$..++o                         ",
"                          ..+o....o+..                          ",
"                          o++o    o++o                          ",
"                          ooo      ooo                          ",
"                                                                ",
"                                                                ",
"                                                                ",
"                                                                ",
"                                                                ",
"                                                                "
};
