/* XPM */
static char *result[] = {
/* columns rows colors chars-per-pixel */
"23 23 6 1 ",
"  c black",
". c #183870",
"X c #3880A0",
"o c #38A0C0",
"O c #70C8F0",
"+ c #0DFF00",
/* pixels */
"+++++++++++++++++++++++",
"+++++++++++++++++++++++",
"+++++++++++++++++++++++",
"++++++++++.....++++++++",
"++++++++..OOOOo..++++++",
"+++++++.OOOOOOOoo.+++++",
"++++++.OOOOOOOOOoo.++++",
"++++++.OOOOOOOOO.oo.+++",
"+++++.oOOOOOOOOOo.o.+++",
"+++++.OOOOOOOOOOO.o.+++",
"+++++.OO OOOOO OO..++++",
"+++++ oOO OOO OOo +++++",
"+++++ oo OOOOO oo +++++",
"+++++ ooo.o.o.ooo +++++",
"++++++ o.o.o.o.o ++++++",
"++++++ ooooooooo ++++++",
"++++++ oo.ooo.oo ++++++",
"+++++++ oX.o.Xo +++++++",
"+++++++ oo.X.oo +++++++",
"++++++.X  .X.  .+++++++",
"++++++.XX.   Xoo ++++++",
"+++++++  ++++ oX ++++++",
"++++++++++++++  +++++++"
};
