/* XPM */
static char *result[] = {
/* columns rows colors chars-per-pixel */
"23 23 11 1 ",
"  c black",
". c #203040",
"X c #183870",
"o c #385070",
"O c #881800",
"+ c #D03818",
"@ c #3880A0",
"# c #38A0C0",
"$ c #70C8F0",
"% c #0DFF00",
"& c #A8B8D0",
/* pixels */
"%%%%%%%%%%%%%%%%%%%%%%%",
"%%%%%%%%%%%%%%%%%%%%%%%",
"%%%%%%%%%%%%%%%%%%%%%%%",
"%%%%%%%%XXXXX%%%%%%%%%%",
"%%%%%%XX$$$$$XX%%%%%%%%",
"%%%%%X$$$$$$$$$X%%%%%%%",
"%%%%X$$$$$$$$$$$X%%%%%%",
"%%%%X$$$$$$$$$$$X%%%%%%",
"%%%X$$$$$$$$$$$$$X%%%%%",
"%%%X$$$$$$$$$ $$$X%%%%%",
"%%%X#$#X$$$$$$ $$X%%%%%",
"%%%%XXX#$$$$$ $$+X%%%%%",
"%%%%% ####$$$$X#OO%%%%%",
"%%%%%% ######X#X#X%%%%%",
"%%%%%% #########X%%%%%%",
"%%%%%%% ####X###X%%%%%%",
"%%%%%%% ##X##X#X%%%%%%%",
"%%  .%%% ## ##XX%%%%%%%",
"% o&o.%% ## ## %%%%%%%%",
"% .oo.. X###   X%%%%%%%",
"%%  .. ###  X@## %%%%%%",
"%%%%%% @# %%% #@ %%%%%%",
"%%%%%%%  %%%%%  %%%%%%%"
};
