/* XPM */
static char *result[] = {
/* columns rows colors chars-per-pixel */
"23 23 8 1 ",
"  c black",
". c #183870",
"X c #881800",
"o c #D03818",
"O c #3880A0",
"+ c #38A0C0",
"@ c #70C8F0",
"# c #0DFF00",
/* pixels */
"#######################",
"#######################",
"#######################",
"##########.....########",
"########..@@@@+..######",
"#######.@@@@@@@++.#####",
"######.@@@@@@@@@++.####",
"######.@@@@@@@@@.++.###",
"#####.+@@@@@@@@@+.+.###",
"#####.@@@@@@@@@@@.+.###",
"#####.@@ @@@@@ @@..####",
"##### +@@ @@@ @@+ #####",
"##### ++ @@@@@ ++ #####",
"##### +++.oXo.+++ #####",
"###### +.+.o.+.+ ######",
"###### +++++++++ ######",
"###### ++.+++.++ ######",
"####### +O.+.O+ #######",
"####### ++.O.++ #######",
"######.O  .O.  .#######",
"######.OO.   O++ ######",
"#######  #### +O ######",
"##############  #######"
};
