/* XPM */
static char *dbc93a68635b4bc6a426fdb20ffafcf6g70bcgu9mk0x5Vbv[] = {
/* columns rows colors chars-per-pixel */
"64 64 24 1 ",
"  c gray99",
". c #ECECEC",
"X c gainsboro",
"o c gray80",
"O c #BCBCBC",
"+ c #ACACAC",
"@ c gray61",
"# c gray55",
"$ c #7C7C7C",
"% c #6C6C6C",
"& c #606060",
"* c #505050",
"= c #444444",
"- c #484848",
"; c #181818",
": c #202020",
"> c gray14",
", c #2C2C2C",
"< c gray19",
"1 c gray22",
"2 c #3C3C3C",
"3 c #444400",
"4 c gray8",
"5 c white",
/* pixels */
"   ..XXooOOO++@@##$$$%%&&***==========&&%%$$$##@@++OOOooXX..    ",
"  ..XXooOOO++@@##$$$%%&&***==========***&&%%$$$##@@++OOOooXX..  ",
" ..XXooOO++@@##$$%%&&**==-;;;;;;;;;;;--==**&&%%$$##@@++OOooXX.. ",
" ..XooOO+@@##$%%&&**==-;;;;;;;;;;;;;;;;;;-==**&&%%$##@@+OOooX.. ",
" .XXoOO+@@#$$%&&**=-;;;;;;:::::::::::;:;;;;;-=**&&%$$#@@+OOoXX. ",
" .XXoO++@#$$%&**=-;:;;::::>>>>>>>>>>>::::::;;;-=**&%$$#@++OoXX. ",
" .XoOO+@#$$%&**=;;:::::>>>,,,,,,,,,,>>>>:>:::;;;=**&%$$#@+OOoX. ",
" .XoO+@@#$%&**-;:::>>>>,,,,<<<<<<<<,,,,>>>>>:::;;-**&%$#@@+OoX. ",
" .XoO+@#$%&*=-;::>>,,,,<<<<<<<<<<<<<<<<,,,,>>>::;;-=*&%$#@+OoX. ",
".XoO+@#$%&*=;;::>>,,<<<<11111111111111<<<<,,,>:::;;;=*&%$#@+OoX.",
".XoO@#$%&*=;:::>>,,<<1111122222222222111<<<,::;;;;;;;=*&%$#@OoX.",
".XO+@$%&*=;::>>,,<<<1222222========22221,::;::::::::;;=*&%$@+OX.",
".XO+#$&*=;::>>,,<<1122=====-------====<,;::>>>>>>>>::;;=*&$#+OX.",
".XO+#$&*-;:>>,<<<1122===------------2,::>>>,,,,,,,>>::;-*&$#+OX.",
".o+@$&*-;;:>,<<1122==----*********=,;>>>,,<<<<<<<,,>>:;;-*&$@+o.",
".o+#%*-;:;:>,<1122==--***&&&&&&&&=,::,,,<<1111111<,,>::;;-*%#+o.",
"XO#%*=;::;:>,<12===-***&&&&%%%%%*;:>><<<112222221<<,>>::;;=*%#OX",
"XO#%*-::>::>,<12=---*&&%%%%$$$$$2:>,,1122======221<,,>>::;-*%#OX",
"X+$*-;:>>::>,<1=--**&&%%$$$$$$%2:>,<122==-----==211<,,>>:;;-*$+X",
"X+$*-::>,,:>,<12=**&%%%$######*:><122==-*****--=2211<,>>::;-*$+X",
"o#*-;:>>,<,:,<12=-&%%$$##@@@@$;>,12=--**&&&&**--=221<<,>>:;;-*#o",
"o#*-::>,,<,:>,12=-&%$$##@@@++$:,<2=-**&&%%%%&**-==211<,,>:;;-*#o",
"o#*-::>,<<<,>,<1=*&%$#@@++++O&:,2=-*&%%$$$$%%&**-==211<,>::;-*#o",
"+*-;:>>,<1<::,<1=-&%$#@++OOOO->1=-*%$$$###$$%&&*--=221<,>>:;;-*+",
"+*-::>,,<1<,:>,<2-*&$#@+OOoo@:<1=*%$##@@@##$%%&**-==21<,,>:;;-*+",
"+*-;:>,<<12<::><2=-&%$@+OoXX#:<=*%$#@@++@@##$%%&*-==211<,>::;-*+",
"+*-;:>,<112=<;>,12=*%$#+OoX.%:<=*$#@++OO+@@#$$%&**-=221<,>::;-*+",
"*-;::>,<122=-<:><1=-*%#@OoX.&,1-%#+OOooO++@##$%&&*-=211<,,>:;;-*",
"*-;:>,,<112=-2,:><1=-&%#@Oo.&,2-%@OooXooO+@@#$%%&*-==21<<,@@OOO*",
"*-;:>,<<12==-*=;:,<2-*&$#+OO-,2*$@@@+XXoO++@#$$%&*--=21<<,@o3OO*",
"*-;:>,<<12=--***2:,<1=**%$$@=>2*2=--&&%#OO+@#$$%&*--=21<<,@O@%+*",
"*-;:>,<<12=--*&&&-:,><22---&<><,>>>,,,<*%%+@#$$%&*--=21<<,@O$4#*",
"*-;:>,<<12=--*&%$$%-:;,1<>==<;,,112221<<,:=*#$$%&*--=21<<,@O$4#*",
"*-;:>,<<12=--*&%$$#@$*:;;><,,;<;2-**--=21<,,2*$%&*--=21<<,@O$4#*",
"*-;:>,<<12=--*&%$$#@+O#@@%&&*&-<;*$$%&*-=21,,:2%&*--=21<<,@O%4#*",
"*-;:>,<<12=--*&%$$#@++OoX...o@&=,-+@#$$&*-21<>:2&*--=21<<,@O$4#*",
"*-;:>,<<12=--*&&%$#@++OoXXXXO#&=<;@O+@#%&*=21<>:<*-=221<,,@O#%@*",
"*-;:>>,<112=-*&%%$#@@+OOoooO+#*2<;+Xo+@#%&*=21,>:<-=211<,>;+OOo*",
"+*;;:>,<112=-*&&%$##@++OOOO+@%=1>%.XoO+@$%&-21,>:,-=211<,>:;;-*+",
"+*;;:>,<112=--*&%$$#@@+++++#$&=,:+.XoO+@#%&*-=1<,>,=21<<,>:;;-*+",
"+*-::>,<<12==-*&&%$$#@@@@@#$%*2<;@XXoO+@#$%*-21<,>:,21<,,>:;;-*+",
"+*-;:>>,<12==-**&%%$#####$$%*-2,-oooOO+@#$%&-=21<>:,11<,>>:;;-*+",
"o#*;::>,<122==-**&%%$$$$$%&*-=<:&OOOO++@#$%&*-21<,>:,<,,>>:;-*#o",
"o#*-::>,<1122=--*&&%%%%%&&*-=1,:$+++++@@#$%&*-=21,>::<,>>::;-*#o",
"o#*-;:>,,<1122=-**&&&&&&**==1<,;#++@@@##$$%&*-=21<,:;,,>>:;;-*#o",
"X+$*-::>,<<112==-******---21<,:%@@@@###$$%%&*-=21<,>:,,>::;-*$+X",
"X+$*-;:>>,<<112==-----===21<>:=#####$$$%%&&**-=21<>>::>>:;;-*$+X",
"XO#%*-::>>,<<122======211<,>:;&$$$$$$%%%&&**--=21<,>;:>::;-*%#OX",
"XO#%*-;::>>,<1122222211<<,>:;-%%%%%%%&%&&*---==21<,>:;::;;-*%#OX",
".o+#%*-;::>,,<1111111<,,,::,-&%&&&&&&&&***-===211<,>;;;;;-*%#+o.",
".o+@$&*-;:>>,,<<<<<<,,>>>,<**&&&&&&&****--==2211<<,::;;;-*&$@+o.",
".XO+#$&*-::>>,,,,,>,>:::,2=--*******-----==2211<<,>>:;;-*&$#+OX.",
".XO+#$&*-;::>:>>>>>::;,,2====-------=====2211<<,,>>::;;-*&$#+OX.",
".XO+@$%&*-;:;::;:;:::<2222============222211<<,,>>::;;-*&%$@+OX.",
".XoO@#$%&*-;;;;;::,<<<11122222222222222111<<<,,>:::;;-*&%$#@OoX.",
".XoO+@#$%&*-;;::>>,,,<<<111111111111111<<<<,,>>::;;;-*&%$#@+OoX.",
" .XoO+@#$%&*--;::>>>,,,,<<<<11111111<<<<,,,,>>::;;--*&%$#@+OoX. ",
" .XoO+@@#$%&**-;:::>>>>,,,,<<<<<<<<<<,,,>>>>:::;;-**&%$#@@+OoX. ",
" .XoOO+@#$$%&**-;;:::>:>>>>,,,,,,,,,,>>>>:>::;;;-**&%$$#@+OOoX. ",
" .XXoO++@#$$%&**--;;::::::>>>>>>>>>>>::::;::;;--**&%$$#@++OoXX. ",
" .XXoOO+@@#$$%&&**-;;;;;:;::::::::::::;:;;;;;-**&&%$$#@@+OOoXX. ",
" ..XooOO+@@##$%%&&**--;;;;;:;;;;;;;;;;;;;---**&&%%$##@@+OOooX.. ",
" ..XXooOO++@@##$$%%&&**---;;;;;;;;;;;----**&&%%$$##@@++OOooXX.. ",
"  ..XXooOOO++@@##$$$%%&&***----------***&&%%$$$##@@++OOOooXX..  "
};
