/* XPM */
static char *ec43a4a2858d41b5e7e9f9527e9268e4XifHkWnYMISQDmeV[] = {
/* columns rows colors chars-per-pixel */
"64 64 21 1 ",
"  c #041804",
". c #0C2804",
"X c #184C0C",
"o c #143C08",
"O c #103408",
"+ c black",
"@ c #000400",
"# c #20580C",
"$ c #246810",
"% c #2C7414",
"& c #686800",
"* c #B0B000",
"= c #8C8C00",
"- c #FCFC00",
"; c #D8D800",
": c #444400",
"> c #58941C",
", c #202000",
"< c #287014",
"1 c #3C8018",
"2 c white",
/* pixels */
"  .Xo.....ooO..  ... ++++++++++++++++++++++ ...  ..Ooo.....oX.  ",
"  .Oo.....OOO......O.+++OOOOOOOOOOOOOOOO+++.O......OOO.....oO.  ",
"  .XoO... OO....O...+++OOooooXXXXXXooooOO+++...O....OO ...OoX.  ",
"   Xo...........OO.@@.OoX##############XoO.@@.OO...........oX   ",
"  .Oo...  .....OOOO+..OO##$##$####$##$##OO..+OOOO.....  ...oO.  ",
"  ..o ... .....OOo++.Oo#X$$X$$X$$X$$X$$X#oO.++oOO..... ... o..  ",
"  ... .oO.....Ooo++..OoX$$X$$X$$$$X$$X$$XoO..++ooO.....Oo. ...  ",
"   .. .XXO.....o++..Ooo#$#o.O......O.o#$#ooO..++o.....OXX. ..   ",
"   .. .OOOoO..++++.Ooo#XXooooO .. OooooXX#ooO.++++..OoOOO. ..   ",
"   .X ...OOX++++++.OOX$$X#ooOO....OOoo#X$$XOO.++++++XOO... X.   ",
"   .o....Ooo+++++.Ooo$$X#OooO  ..  OooO#X$$ooO.+++++ooO....o.   ",
"    O ...OXo++++..oXo$##OoOO.oXOOXo.OOoO##$oXo..++++oXO... O    ",
"    ....OO#++++..#X##$#$ooo.O.XOOX.O.ooo$#$##X#..++++#OO....    ",
"    ...O.o#+++O.OO##X$$ooOo.O#.OO.#O.oOoo$$X##OO.O+++#o.O...    ",
"    .....O++..Oo#o$$o#XXOOOO#X%%%%X#OOOOXX#o$$o#oO..++O.....    ",
"    .....+++.OooXX$##%oOoOo%%%&&&&%%%oOoOo%##$XXooO.+++.....    ",
"    .....++%.OoX#$##X#OOOo%*===&&===*%oOOO#X##$#XoO.%++.....    ",
"     ..O++-;%oo#$%$o#O.OO%**%%:&&:%%**%OO.O#o$%$#oo%;-++O..     ",
"     . .+.%;%.O$%%Xo$OoO%;;%..%::%..%;;%OoO$oX%%$O.%;%.+. .     ",
"        +.%;*>>$%$oo%o.%-;%O.%,::,%.O%;-%.o%oo$%$>>*;%.+        ",
"       +..o>**=>>ooX.%%--%o   %,,%   o%--%%.Xoo>>=**>o..+       ",
"    ++++. OX>>==&%%%%,++%o...%+,,+%...o%++,%%%%&==>>XO .++++    ",
"    .+++O.O.X#>>&&::,,%%o..OX#%++%#XO..o%%,,::&&>>#X.O.O+++.    ",
"    .++++OX#X  .%%%%%%.O.o###%-++-%###o.O.%%%%%%.  X#XO++++.    ",
".   O++++o#Xo.O. ....Oo$X#$XXo%--%oXX$#X$oO.... .O.oX#o++++O   .",
".  #o.+++o.ooO.OoO...X#$$#Xo#%;--;%#oX#$$#X...OoO.Ooo.o+++.o#  .",
"O  o. ...oX#X#oooOO.o$$#X#X##o%;;%o##X#X#$$o.OOooo#X#Xo... .o  O",
"o oO.OXoOXX$%$$$XooX#XXoX$#oo%;;;;%oo#$XoXX#XooX$$$%$XXOoXO.Oo o",
".  ..Oo%$XX%$###oO.O#X##$$ooXX%**%XXoo$$##X#O.Oo###$%XX$%oO..  .",
"  ...oo$$#o#$oOo##oX#$$$$#oXX%%%%%%XXo#$$$$#Xo##oOo$#o#$$oo...  ",
"o  .#XXXo#OOX$X######$Xo#<oX%%1111%%Xo<#oX$######X$XOO#oXXX#.  o",
". .O*;o#-#$+X%,XX:X&o=o*X<oX%1>>>>1%Xo<X*o=o&X:XX,%X+$#-#o;*O. .",
". .O*;o#-#$+X%,XX:X&o=o*<<oX%1>>>>1%Xo<<*o=o&X:XX,%X+$#-#o;*O. .",
"o  .#XXXo#OOX$X######$Xo#<oX%1>>>>1%Xo<#oX$######X$XOO#oXXX#.  o",
"  ...Xo$$#o#$oOo##oX#$$$$<oX%%1111%%Xo<$$$$#Xo##oOo$#o#$$oX...  ",
"   ..oo$$#o#$oOo##oX#$$$$#oXX%%%%%%XXo#$$$$#Xo##oOo$#o#$$oo..   ",
"..oO.Oo%$XX%$###oO.O#X##$$ooXX%**%XXoo$$##X#O.Oo###$%XX$%oO.Oo..",
".OXo.OXoOXX$%$$$XooX#XXoX$#oo%;;;;%oo#$XoXX#XooX$$$%$XXOoXO.oXO.",
".  #o. ...oX#X#oooOOo$$#X#X##o%;;%o##X#X#$$oOOooo#X#Xo... .o#  .",
".   ++.+++o.ooO.OoO..X#$$#Xo#%;--;%#oX#$$#X..OoO.Ooo.o+++.++   .",
"    ++++++o#Xo.O. ...Oo$X#$XXo%--%oXX$#X$oO... .O.oX#o++++++    ",
"    ++++++OX#X  .%%%%%.O.o###%-++-%###o.O.%%%%%.  X#XO++++++    ",
"    +++++O.O.X#>>&&:,,%%o..OX#%++%#XO..o%%,,:&&>>#X.O.O+++++    ",
"      +++. OX>>==&%%%,++%o...%+,,+%...o%++,%%%&==>>XO .+++      ",
"       ++..o>**=>>oo.%%--%o   %,,%   o%--%%.oo>>=**>o..++       ",
"    . .++++%;*>>$%$o%o.%-;%O.%,::,%.O%;-%.o%o$%$>>*;%++++. .    ",
"    ..O+++++;%.O$%%X$OoO%;;%..%::%..%;;%OoO$X%%$O.%;+++++O..    ",
"   .....+++++%oo#$%$#O.OO%**%%:&&:%%**%OO.O#$%$#oo%+++++.....   ",
"   .....++++++OoX#$#X#OOOo%*===&&===*%oOOO#X#$#XoO++++++.....   ",
"   .....O+++++OooXX$#%oOoOo%%%&&&&%%%oOoOo%#$XXooO+++++O.....   ",
"   ...O.o#+++++Oo#o$o#XXOOOO#X%%%%X#OOOOXX#o$o#oO+++++#o.O...   ",
"   ....OO#+++++O.OO#X$$ooOo.O#.OO.#O.oOoo$$X#OO.O+++++#OO....   ",
"   O ...OXo+++++..#X#$#$ooo.O.XOOX.O.ooo$#$#X#..+++++oXO... O   ",
"  .o....Ooo++++++..oo$##OoOO.oXOOXo.OOoO##$oo..++++++ooO....o.  ",
"  .X ...OOX+++++++.Oo$$X#OooO  ..  OooO#X$$oO.+++++++XOO... X.  ",
"  .. .OOOoO..++++++.OX$$X#XXOO....OOXX#X$$XO.++++++..OoOOO. ..  ",
"  .. .XXO.....o++++.oo#$#$$ooO .. Ooo$$#$#oo.++++o.....OXX. ..  ",
"... .oO.....Ooo++++.OooXX$#XXO....OXX#$XXooO.++++ooO.....Oo. ...",
"..o ... .....OOo++++.OooX$$$ooO..Ooo$$$XooO.++++oOO..... ... o..",
".Oo...  .....OOOO+++.Oooo$$##XXOOXX##$$oooO.+++OOOO.....  ...oO.",
" Xo...........OO.+++.....X$#$$oooo$$#$X.....+++.OO...........oX ",
".XoO... OO....O...++++O..o$$$#$oo$#$$$o..O++++...O....OO ...OoX.",
".Oo.....OOO......O.+++++OOoOoOoOOoOoOoOO+++++.O......OOO.....oO.",
".Xo.....ooO..  ... ++++++++++++++++++++++++++ ...  ..Ooo.....oX."
};
