/* XPM */
static char *_c18ed721b0e4b7dabaac8a1906b0c05mVyCuB320mdSqoxL[] = {
/* columns rows colors chars-per-pixel */
"64 64 26 1 ",
"  c #BCBCBC",
". c #ACACAC",
"X c gray61",
"o c gray55",
"O c #7C7C7C",
"+ c #6C6C6C",
"@ c #D0D000",
"# c black",
"$ c #FCFC00",
"% c gray80",
"& c gainsboro",
"* c #980088",
"= c #ECECEC",
"- c gray99",
"; c gray3",
": c #F0F000",
"> c #E4E400",
", c #505050",
"< c #D8D800",
"1 c #686800",
"2 c #8C8C00",
"3 c #B0B000",
"4 c #0000FC",
"5 c #C4C400",
"6 c #B8B800",
"7 c white",
/* pixels */
"                 ..............................                 ",
"                .XXXXXXXXXXXXXXXXXXXXXXXXXXXXXX.                ",
"               .XXooooooooooooooooooooooooooooXX.               ",
"              .XXoOOOOOOOOOOOOOOOOOOOOOOOOOOOOoXX.              ",
"             .XXoO++++++++++++++++++++++++++++OoXX.             ",
"            .XXoO+XXXXXXXXXXXXXXXXXXXXXXXXXXXX+OoXX.            ",
"@@@@@@@@@@@@.XoO+..............................+OoX.@@@@@@@@@@@@",
"@@@@@@@@@@@.XoO+X.##$$###$$###$$###$$###$$###$.X+OoX.@@@@@@@@@@@",
"@@@@@@@@@@@.XoOoX.#$$###$$###$$###$$###$$###$$.XoOoX.@@@@@@@@@@@",
"@@@@@@@@@@@.XoOoX.$$###$$###$$###$$###$$###$$#.XoOoX.@@@@@@@@@@@",
"%%%%%%%%%%%.XoOoX.   ......................   .XoOoX.%%%%%%%%%%%",
"&&&&&&&&&&&.XoOoX.   .XXXXXXXXXXXXXXXXXXXX.   .XoOoX.&&&&&&&&&&&",
"&&&&&&&&&&&.XoOoX.   .Xooooooooooooooooooo.   .XoOoX.&&&&&&&&&&&",
"&&&&&&&&&&&.XoOoX.%%%.XoOOOOOOOOOOOOOOOOoO.%%%.XoOoX.&&&&&&&&&&&",
"&&&&&&&&&&&.XoOoX.%%%.XoO**************OoO.%%%.XoOoX.&&&&&&&&&&&",
"&&&&&&&&&&&.XoOoX.%%%.XoO**************OoO.%%%.XoOoX.&&&&&&&&&&&",
"===========.XoOoX.%%%.XoO**************OoO.%%%.XoOoX.===========",
"===========.XoOoX.%%%.XoO**************OoO.%%%.XoOoX.===========",
"===========.XoOoX.%%%..XoO************OoXo.%%%.XoOoX.===========",
"===========.XoOoX.%%%%..XoO**********OoX..%%%%.XoOoX.===========",
"===========.XoOoX.&&&&&..XoO********OoX..&&&&&.XoOoX.===========",
"-----------.XoOoX.&&&&&&..XoO******OoX..&&&&&&.XoOoX.-----------",
"-----------.XoOoX.&&&&&&&..XoO****OoX..&&&&&&&.XoOoX.-----------",
";;;;-------.XoOoX....&&&&&..XoO**OoX..&&&&&....XoOoX.-------;;;;",
";;;;;------.XoOoXXXXX.&&&&&..XoOOoX..&&&&&.XXXXXoOoX.------;;;;;",
":;;;;------.XoOooooooX.&&&&&..XOoX..&&&&&.XoooooOoX.-------;;;;:",
"::;;;------.XoOOOOOOOoX.=====..Oo..=====.XoOOOOOoX.--------;;;::",
">>>;;------.XoO,,,,,,OoX.=====....=====.XoO,,,OoX.---------;;>>>",
">>>>;------.XoOOOOOOO,OoX.============.XoO,OOOOoX.-&&&-----;>>>>",
"<<<<<------.XoOooooooO,OoX.==========.XoO,OooOoX.--&1&-----<<<<<",
"<<<<<------.XoOoXXXXXoO,OoX.========.XoO,OoXXOoX.--&2&-----<<<<<",
"@@@@@------.XoOoX....XoO,OoX.======.XoO,OoX..OoX.--=3=-----@@@@@",
"@@@@@------.XoOoX....XoO,+OOo......oOO+,OoX..OoX.--&<&-4---@@@@@",
";5555------.XoOoXXXXXoO,OoX.========.XoO,OoXXOoX.--=&=-----5555;",
";;555------.XoOooooooO,OoX.==========.XoO,OooOoX.----------555;;",
";;;66------.XoOOOOOOO,OoX.============.XoO,OOOOoX.---------66;;;",
";;;;6------.XoO,,,,,,OoX.=====....=====.XoO,,,OoX.---------6;;;;",
";;;;;------.XoOOOOOOOoX.=====..oO..=====.XoOOOOOoX.--------;;;;;",
";;;;;------.XoOooooooX.&&&&&..XoOX..&&&&&.XoooooOoX.-------;;;;;",
";;;;;------.XoOoXXXXX.&&&&&..XoOOoX..&&&&&.XXXXXoOoX.------;;;;;",
";;;;;------.XoOoX....&&&&&..XoO**OoX..&&&&&....XoOoX.------;;;;;",
";;;;-------.XoOoX.&&&&&&&..XoO****OoX..&&&&&&&.XoOoX.-------;;;;",
"-----------.XoOoX.&&&&&&..XoO******OoX..&&&&&&.XoOoX.-----------",
"===========.XoOoX.&&&&&..XoO********OoX..&&&&&.XoOoX.===========",
"===========.XoOoX.%%%%..XoO**********OoX..%%%%.XoOoX.===========",
"===========.XoOoX.%%%.oXoO************OoX..%%%.XoOoX.===========",
"===========.XoOoX.%%%.OoO**************OoX.%%%.XoOoX.===========",
"===========.XoOoX.%%%.OoO**************OoX.%%%.XoOoX.===========",
"&&&&&&&&&&&.XoOoX.%%%.OoO**************OoX.%%%.XoOoX.&&&&&&&&&&&",
"&&&&&&&&&&&.XoOoX.%%%.OoO**************OoX.%%%.XoOoX.&&&&&&&&&&&",
"&&&&&&&&&&&.XoOoX.%%%.OoOOOOOOOOOOOOOOOOoX.%%%.XoOoX.&&&&&&&&&&&",
"&&&&&&&&&&&.XoOoX.   .oooooooooooooooooooX.   .XoOoX.&&&&&&&&&&&",
"&&&&&&&&&&&.XoOoX.   .XXXXXXXXXXXXXXXXXXXX.   .XoOoX.&&&&&&&&&&&",
"%%%%%%%%%%%.XoOoX.   ......................   .XoOoX.%%%%%%%%%%%",
"@@@@@@@@@@@.XoOoX.##$$###$$###$$###$$###$$###$.XoOoX.@@@@@@@@@@@",
"@@@@@@@@@@@.XoOoX.#$$###$$###$$###$$###$$###$$.XoOoX.@@@@@@@@@@@",
"@@@@@@@@@@@.XoO+X.$$###$$###$$###$$###$$###$$#.X+OoX.@@@@@@@@@@@",
"@@@@@@@@@@@@.XoO+..............................+OoX.@@@@@@@@@@@@",
"            .XXoO+XXXXXXXXXXXXXXXXXXXXXXXXXXXX+OoXX.            ",
"             .XXoO++++++++++++++++++++++++++++OoXX.             ",
"              .XXoOOOOOOOOOOOOOOOOOOOOOOOOOOOOoXX.              ",
"               .XXooooooooooooooooooooooooooooXX.               ",
"                .XXXXXXXXXXXXXXXXXXXXXXXXXXXXXX.                ",
"                 ..............................                 "
};
