/* XPM */
static char *result[] = {
/* columns rows colors chars-per-pixel */
"41 51 12 1 ",
"  c #0DFF00",
". c #807898",
"X c #505068",
"o c #D8D0E0",
"O c #B0A8C0",
"+ c black",
"@ c #F8F8F8",
"# c #581878",
"$ c #7840A8",
"% c #B868E0",
"& c #F0A0F8",
"* c white",
/* pixels */
"                                         ",
"                                         ",
"                                         ",
"                                         ",
"              ..X                        ",
"              .oOX                       ",
"              .O.+                       ",
"              ..X+                       ",
"              .@@o.X ..X       ###       ",
"             .@@@@ooXoo+     #$%%%$#     ",
"            .@@@@@o.oo.+    #%%#+#$%#    ",
"            .@@@@oOooOX     $%+   +$%#   ",
"           .@o@@ooooo.+    #%#     #$#   ",
"           X@OooO@oooX+X   #%#     +$%#  ",
"            .oo.@o+XOO+OX  #%+     +%%#  ",
"            +ooOo+@.O.+XOX +$+     +%%%# ",
"             .ooX#oO.+ +.+ +$+     +$%$# ",
"             +O.OOO++  +.+ +$#     +$$$# ",
"            XX+++++O.XX.+   +$#     #$$+ ",
"           .O+ooOX..oooX    +$#     +$#+ ",
"          .o.+.oXoooo+++    #$$#     ++  ",
"        .Oo.+ +.Xooo++OX    #$$#         ",
"    X...oOX+  ++X..X++XoX  #$$$+         ",
"   +OXOooX ...Xo.++++ +o.#$%%$$+         ",
"   +Xoo.o+.ooXooo..++++OoX%%$$#+         ",
"   +oO+oO.oo$$#ooO.+$$+.oX%$$##+         ",
"   +OX+OXoo$&%%#oO..+#$XoX$$##+          ",
"    ++ +Xo$&&&%$OX.XX+#+oX####+          ",
"        +O#%&%%#XOooOX+.o+###+           ",
"         X+#%%%#.ooooXOoO+##+            ",
"         +.+$$$+OooX.ooo.#++             ",
"          +.+#$+XoXoO.oOX+               ",
"           +X++#+O+.XO.O+                ",
"            +XX+++.+o.+o.X               ",
"             +XXX.++OX+OX+               ",
"             +X.+X++++.++                ",
"             XO..+  +X..X                ",
"            XOOO.+   +X.XX               ",
"           XoOOO.+   ++XOX               ",
"           +OXoOX    +..OX               ",
"            ++O.+    X.OOX               ",
"              ++     XOOO+               ",
"                    XoOO.+               ",
"                    +OXoO+               ",
"                     ++O.+               ",
"                       ++                ",
"                                         ",
"                                         ",
"                                         ",
"                                         ",
"                                         "
};
