/* XPM */
static char *result[] = {
/* columns rows colors chars-per-pixel */
"41 51 12 1 ",
"  c rgba(255, 255, 255, 0)",
". c #807898",
"X c #505068",
"o c #D8D0E0",
"O c #B0A8C0",
"+ c black",
"@ c #581878",
"# c #F8F8F8",
"$ c #7840A8",
"% c #B868E0",
"& c #F0A0F8",
"* c white",
/* pixels */
"                                         ",
"                                         ",
"                                         ",
"                                         ",
"                                         ",
"                                         ",
"                                         ",
"           ..X                           ",
"           .oOX                          ",
"           .O.+                          ",
"           ..X+           @@@@           ",
"           .##o.X ..X   @$%%%$@@         ",
"          .####ooXoo+  @%$@++@$$@        ",
"         .#####o.oo.+  $$+   +@$%@       ",
"         .####oOooOX  @%@     +%%%@      ",
"        .#o##ooooo.+  +%+     +$%%@      ",
"        X#OooO#oooX+X +$@      +$%$@     ",
"         .oo.#o+XOO+OX @$@     +@$$@     ",
"         +ooOo+#.O.+XOX+$@      +@$+     ",
"          .ooX@oO.+ +.++$$@      ++      ",
"          +O.OOO++  +.+ @$@              ",
"         XX+++++.XXX.+  +$@              ",
"         .+ooOX..OoOX   +$$@             ",
"        .O+OoXOooo.X+  @$$$@             ",
"       .oX++.Xooo++OX  $%$$@             ",
"     X.o.+ ++X.OX++.OX@%%$$@             ",
"   X.oo....Xo.++++ XoX%%$$$@             ",
"  XoOoO.ooXooo..++++o.%$$$@+             ",
" +OXo..oo$$@ooO.+$$+OoX$$@@+             ",
" ++oOXoo$&%%@oO..+@$.oX@@@+              ",
"  +X.Xo$&&&%$OX.XX+@XoX@@@+              ",
"   +++O@%&%%@XOooOX++o+@@+               ",
"     +O+@%%%@.ooooOXoo+@+                ",
"      +.+$$$+Ooooo.ooO++                 ",
"       +.+@$+Xooo.ooO.                   ",
"        +X++@+.oXoOoOX                   ",
"         +XX+++X+.o.o+                   ",
"         X..+X+ +XO+.OX                  ",
"         .O..+   ++.+.+                  ",
"        XOOO.+    ++++X                  ",
"       XoOOOX      +X.XX                 ",
"       +OXoO+      ++XOX                 ",
"        ++O.+      +..OX                 ",
"          ++       X.OOX                 ",
"                   XOOO+                 ",
"                  XoOO.+                 ",
"                  +OXoO+                 ",
"                   ++O.+                 ",
"                     ++                  ",
"                                         ",
"                                         "
};
