/* XPM */
static char *result[] = {
/* columns rows colors chars-per-pixel */
"41 51 12 1 ",
"  c rgba(255, 255, 255, 0)0",
". c #807898",
"X c #505068",
"o c #D8D0E0",
"O c #B0A8C0",
"+ c black",
"@ c #581878",
"# c #F8F8F8",
"$ c #7840A8",
"% c #B868E0",
"& c #F0A0F8",
"* c white",
/* pixels */
"                                         ",
"                                         ",
"                                         ",
"                                         ",
"                                         ",
"                                         ",
"                                         ",
"             ..X                         ",
"             .oOX                        ",
"             .O.+                        ",
"             ..X+            @@@         ",
"             .##o.X ..X    @$%%%$@       ",
"            .####ooXoo+   @%%@+@$%@      ",
"           .#####o.oo.+   $%+   +$%@     ",
"           .####oOooOX   @%@     @$@     ",
"          .#o##ooooo.+   @%+     +$%@    ",
"          X#OooO#oooX+X  @%+     +%%$    ",
"           .oo.#o+XOO+OX +$@     +%%%@   ",
"           +ooOo+#.O.+XOX @$@    +$%$@   ",
"            .ooX@oO.+ +.+ +$@     @$$+   ",
"            +O.OOO++  +.+ +$$@    +$@+   ",
"          ..X+++++O..XX+   @$@     ++    ",
"        .Oo.+ooOX..oooX    @$$@          ",
"  XX   .oo.++XoXoooo+++   @$$$@          ",
" XoO..OoOX+  +X+ooo++OX   @$$$@          ",
" +.XOoo.+    +++XXX++XoX @%$$$+          ",
"  Xoo.oX  ...Xo.++++ +OoX%%$$@+          ",
" Xo.+oO+ .ooXooo..+++@XoX%$$@+           ",
" +.X+O. .oo$$@ooO.+$$$+o+$$@@+           ",
"  ++ ++Xoo$&%%@oO..+@$Xo+$@@+            ",
"       +O$&&&%$OX.XX++oO+@@@+            ",
"        X@%&%%@XOooOXoo.@@@+             ",
"        ++@%%%@.ooX.oooX@@+              ",
"         ++$$$+OoXoO.oO+++               ",
"          ++@$+Xo+.XO.O+                 ",
"           +++@+Oo+o.+o.X                ",
"            +X+++.+OX+OX+                ",
"            +XXX+X.++X++                 ",
"             X..++X...X                  ",
"             .O..++X..X                  ",
"            XOOO.+ +X.X                  ",
"            XOOO.+ ++XOX                 ",
"           XoOOOX  +..OX                 ",
"           +OXoO+  X.OOX                 ",
"            ++O.+  XOOO+                 ",
"              ++  XoOO.+                 ",
"                  +OXoO+                 ",
"                   ++O.+                 ",
"                     ++                  ",
"                                         ",
"                                         "
};
