/* XPM */
static char *result[] = {
/* columns rows colors chars-per-pixel */
"64 64 17 1 ",
"  c #0DFF00",
". c black",
"X c #F8D060",
"o c #602800",
"O c #E89800",
"+ c #A86800",
"@ c #386010",
"# c #80C850",
"$ c #D8E8F8",
"% c #501800",
"& c #A03818",
"* c #D85030",
"= c gray22",
"- c #607878",
"; c #A8B8D0",
": c #E8E8F8",
"> c white",
/* pixels */
"                                                                ",
"                                                                ",
"                                                                ",
"                                                                ",
"                                                                ",
"                                                                ",
"                                                                ",
"                                                                ",
"                                                                ",
"                                                                ",
"                                                                ",
"                                                                ",
"                                                                ",
"                                                                ",
"                                                                ",
"                                                                ",
"                                                                ",
"                                                                ",
"                                                                ",
"                                                                ",
"                                                                ",
"                                                                ",
"                                                                ",
"                                                                ",
"                                                                ",
"                             ..  ..                             ",
"                            ..XooX..                            ",
"                       oo   .XXooXX.   oo                       ",
"                     ..Xo   oXXooXXo   oX..                     ",
"                     .XXXo  oOXooXOo  oXXX.                     ",
"                      .XXo  oOO++OOo  oXX.                      ",
"                  oo  .+OO+oo+O++O+oo+OO+.  oo                  ",
"             .....oOoo .OOooXoO++OoXooOO. ooOo.....             ",
"           @.##@##...ooooOoXXoO++OoXXoOoooo...##@##.@           ",
"          @##$$$$$@##@..o+oXXOo++oOXXo+o..@##@$$$$$##@          ",
"          @%%%$%%%$$#@##.++oXOo++oOXo++.##@#$$%%%$%%%@          ",
"          ...&%&&%%%$$##@.+oOO+oo+OOo+.@##$$%%%&&%&...          ",
"         .***%%&&%&&%%$$@#.+oOOooOOo+.#@$$%%&&%&&%%***.         ",
"         ..****%*&%&&%%$$##.o+O..O+o.##$$%%&&%&*%****..         ",
"           ..*****%*&%&%%$#@.+.++.+.@#$%%&%&*%*****..           ",
"             ..******&%&&%%#@o....o@#%%&&%&******..             ",
"               .*****&%&&%&%@%.OO.%@%&%&&%&*****.               ",
"                .*****&&&&&%%&.OO.&%%&&&&&*****.                ",
"                 .*****&&&&%&&%..%&&%&&&&*****.                 ",
"                  .&*****&&&&..OO..&&&&*****&.                  ",
"                   %%&*****&.*.XX.*.&*****&%%                   ",
"                     %%%&**.**.OO.**.**&%%%                     ",
"                        %%%.&*&..&*&.%%%                        ",
"                        =-.==**++**==.-=                        ",
"                        =;.=:=&++&=:=.;=                        ",
"                        =;.=;%&OO&%;=.;=                        ",
"                         =;.&.+OO+.&.;=                         ",
"                          =;.O+OO+O.;=                          ",
"                        ==-=.OOXXOO.=-==                        ",
"                       .;--= oOXXOo =--;.                       ",
"                       ...;= .XXXX. =;...                       ",
"                         ..  .XXXX.  ..                         ",
"                              oXXo                              ",
"                              oOOo                              ",
"                               oo                               ",
"                                                                ",
"                                                                ",
"                                                                ",
"                                                                "
};
