/* XPM */
static char *result[] = {
/* columns rows colors chars-per-pixel */
"64 64 16 1 ",
"  c #0DFF00",
". c black",
"X c #F8D060",
"o c #602800",
"O c #E89800",
"+ c #A86800",
"@ c #501800",
"# c #386010",
"$ c #A03818",
"% c #D85030",
"& c #80C850",
"* c gray22",
"= c #E8E8F8",
"- c #A8B8D0",
"; c #607878",
": c white",
/* pixels */
"                                                                ",
"                                                                ",
"                                                                ",
"                                                                ",
"                                                                ",
"                                                                ",
"                                                                ",
"                                                                ",
"                                                                ",
"                                                                ",
"                                                                ",
"                                                                ",
"                                                                ",
"                                                                ",
"                                                                ",
"                                                                ",
"                                                                ",
"                                                                ",
"                                                                ",
"                                                                ",
"                                                                ",
"                                                                ",
"                                                                ",
"                             ..  ..                             ",
"                            ..XooX..                            ",
"                       oo   .XXooXX.   oo                       ",
"                     ..Xo   oXXooXXo   oX..                     ",
"                     .XXXo  oOXooXOo  oXXX.                     ",
"                      .XXo  oOO++OOo  oXX.                      ",
"                      .+OO+oo+O++O+oo+OO+.                      ",
"                  oo   .OOooXoO++OoXooOO.   oo                  ",
"                 ..Xoo  oOoXXoO++OoXXoOo  ooX..                 ",
"                 .XXXOooo+oXXOo++oOXXo+oooOXXX.                 ",
"                  ..OOOO+o+oXOo++oOXo+o+OOOO..                  ",
"                    oooOO++oOO+oo+OOo++OOooo                    ",
"                     oXooOo+oOOooOOo+oOooXo                     ",
"                  oooXXXOoo+o+O..O+o+ooOXXXooo                  ",
"                 ..O+ooOOOOoo+.++.+ooOOOOoo+O..                 ",
"                 .OOOOOooOOO+o....o+OOOooOOOOO.                 ",
"                 ...+oo++++++@.OO.@++++++oo+...                 ",
"                    .oOOOo.+@@.OO.@@+.oOOOo.                    ",
"                    .OO+###@$$@..@$$@###+OO.                    ",
"                    ...##$$%%..OO..%%$$##...                    ",
"                     .&@@%%%.%.XX.%.%%%@@&.                     ",
"                    .#@$%%%.%%.OO.%%.%%%$@#.                    ",
"                   .#&@@%%@.$%$..$%$.@%%@@&#.                   ",
"                   .&@%%%$.**%%++%%**.$%%%@&.                   ",
"                  .&@%%%%@.*=*$++$*=*.@%%%%@&.                  ",
"                  .#@$%%$*.*-@$OO$@-*.*$%%$@#.                  ",
"                 .&$$%%%@*-.$.+OO+.$.-*@%%%$$&.                 ",
"                 .&@%%%$@ *-.O+OO+O.-* @$%%%@&.                 ",
"                 #.@%%%$@*;*.OOXXOO.*;*@$%%%@.#                 ",
"                 .&$%%%@.;;* oOXXOo *;;.@%%%$&.                 ",
"                 .#%%%%@.*-* .XXXX. *-*.@%%%%#.                 ",
"                 #@%%%$@ **  .XXXX.  ** @$%%%@#                 ",
"                  @%%%$@      oXXo      @$%%%@                  ",
"                  .$%%@       oOOo       @%%$.                  ",
"                   .%%@        oo        @%%.                   ",
"                   .$%@                  @%$.                   ",
"                    .$@                  @$.                    ",
"                     @@                  @@                     ",
"                                                                ",
"                                                                ",
"                                                                "
};
