/* XPM */
static char *_64e13ff3c9e43e3dfd8604a5f7dce7f7QnZ88XxaOjCZjY1[] = {
/* columns rows colors chars-per-pixel */
"64 64 33 1 ",
"  c #BCBCBC",
". c #ECECEC",
"X c gray61",
"o c #7C7C7C",
"O c #505050",
"+ c #484848",
"@ c gray80",
"# c #3C3C3C",
"$ c gray14",
"% c gray19",
"& c gainsboro",
"* c #0000D8",
"= c #0000B0",
"- c #00008C",
"; c #000068",
": c #000044",
"> c #000020",
", c black",
"< c #0000FC",
"1 c #606060",
"2 c #6C6C6C",
"3 c #444400",
"4 c #440000",
"5 c #8C0000",
"6 c #686800",
"7 c #D80000",
"8 c gray99",
"9 c gray55",
"0 c #202000",
"q c #ACACAC",
"w c #6C6C00",
"e c #8C8C00",
"r c white",
/* pixels */
"  ............................................................  ",
"                                                                ",
"  XXXXXXXXXXXXXXXXXXXXXXXXXXXXXXXXXXXXXXXXXXXXXXXXXXXXXXXXXXXX  ",
"  oooooooooooooooooooooooooooooooooooooooooooooooooooooooooooo  ",
"  OOOOOOOOOOOOOOOOOOOOOOOOOOOOOOOOOOOOOOOOOOOOOOOOOOOOOOOOOOOO  ",
"  ++++++++++++++++++++++++++++++++++++++++++++++++++++++++++++  ",
"@@############################################################@@",
"@@$$$$$$$$$$$$$$$$$$$$$$$$$$$$$$$$$$$$$$$$$$$$$$$$$$$$$$$$$$$$@@",
"@@$$$$$$$$$$$$$$$$$$$$$$$$$$$$$$$$$$$$$$$$$$$$$$$$$$$$$$$$$$$$@@",
"@@$$%%%%%%%%%%%%%%%%%%%%%%%%%%%%%%%%%%%%%%%%%%%%%%%%%%%%%%%%%$@@",
"@@%%%%%%%%%%%%%%%%%%%%%%%%%%%%%%%%%%%%%%%%%%%%%%%%%%%%%%%%%%%%@@",
"&&###%#%#%#%#%#%#%#%#%#%#%#%#%#%#%#%#%#%#%#%#%#%#%#%#%#%#%#%##&&",
"&&###$#$#$#$#$#$#$#$#$#$#$#$#$#$#$#$#$#$#$#$#$#$#$#$#$#$#$#$##&&",
"&&###*#*#=#=#-#-#;#;#:#:#>#>#*#*#=#=#-#-#;#;#:#:#>#>#,#,#<#<##&&",
"&&##+*+*+=+=+-+-+;+;+:+:+>+>+*+*+=+=+-+-+;+;+:+:+>+>+,+,+<+<+#&&",
"&&++O#O#O#O#O#O#O#O#O#O#O#O#O#O#O#O#O#O#O#O#O#O#O#O#O#O#O#O#O+&&",
"..OOO+O+O+O+O+O+O+O+O+O+O+O+O+O+O+O+O+O+O+O+O+O+O+O+O+O+O+O+OO..",
"..OOOOOOOOOOOOOOOOOOOOOOOOOOOOOOOOOOOOOOOOOOOOOOOOOOOOOOOOOOOO..",
"..111111111111111111111111111111111111111111111111111111111111..",
"..111111111111111111111111111111111111111111111111111111111111..",
"..ooo2o2o3o:oOooo2ooo4o<o5ooo2o2o;o4o<ooo2ooo6o,o7ooo2o2o2o2oo..",
"88oooooooooooooooooooooooooooooooooooooooooooooooooooooooooooo88",
"88999999909;9<999999909;9<999999949<95999999949<9599999999999988",
"88XXXXXXXXXXXXXXXXXXXXXXXXXXXXXXXXXXXXXXXXXXXXXXXXXXXXXXXXXXXX88",
"88qqqqqqqqqqqqqqqqqqqqqqqqqqqqqqqqqqqqqqqqqqqqqqqqqqqqqqqqqqqq88",
"88@@@@@@@@@@@@@@@@@@@@@@@@@@@@@@@@@@@@@@@@@@@@@@@@@@@@@@@@@@@@88",
"88&&& & & & & & & & & & & & & & & & & & & & & & & & & & & & &&88",
"88...@.@.@.@.@.@.@.@.@.@.@.@.@.@.@.@.@.@.@.@.@.@.@.@.@.@.@.@..88",
"88888<8<8,8,8>8>8:8:8;8;8-8-8<8<8,8,8>8>8:8:8;8;8-8-8=8=8*8*8888",
"88888<8<8,8,8>8>8:8:8;8;8-8-8<8<8,8,8>8>8:8:8;8;8-8-8=8=8*8*8888",
"88888.8.8.8.8.8.8.8.8.8.8.8.8.8.8.8.8.8.8.8.8.8.8.8.8.8.8.8.8888",
"88888&8&8&8&8&8&8&8&8&8&8&8&8&8&8&8&8&8&8&8&8&8&8&8&8&8&8&8&8888",
"88&&&@&@&@&@&@&@&@&@&@&@&@&@&@&@&@&@&@&@&@&@&@&@&@&@&@&@&@&@&&88",
"88                                                            88",
"88qqqqqqqqqqqqqqqqqqqqqqqqqqqqqqqqqqqqqqqqqqqqqqqqqqqqqqqqqqqq88",
"889999999w9:92999999969,979999999w9:92999999929:9w99999999999988",
"88ooo2o2ooooooooo2ooooooooooo2o2ooooooooo2ooooooooooo2o2o2o2oo88",
"881111111;141<1111111;141<1111111,1614111111141<1511111111111188",
"88OOOOOOOOOOOOOOOOOOOOOOOOOOOOOOOOOOOOOOOOOOOOOOOOOOOOOOOOOOOO88",
"88OOOOOOOOOOOOOOOOOOOOOOOOOOOOOOOOOOOOOOOOOOOOOOOOOOOOOOOOOOOO88",
"88+++#+#+#+#+#+#+#+#+#+#+#+#+#+#+#+#+#+#+#+#+#+#+#+#+#+#+#+#++88",
"88###%#%#%#%#%#%#%#%#%#%#%#%#%#%#%#%#%#%#%#%#%#%#%#%#%#%#%#%##88",
"88%%%$%$%$%$%$%$%$%$%$%$%$%$%$%$%$%$%$%$%$%$%$%$%$%$%$%$%$%$%%88",
"..$$$*$*$=$=$-$-$;$;$:$:$>$>$*$*$=$=$-$-$;$;$:$:$>$>$,$,$<$<$$..",
"..$$$*$*$=$=$-$-$;$;$:$:$>$>$*$*$=$=$-$-$;$;$:$:$>$>$,$,$<$<$$..",
"..###$#$#$#$#$#$#$#$#$#$#$#$#$#$#$#$#$#$#$#$#$#$#$#$#$#$#$#$##..",
"..##+#+#+#+#+#+#+#+#+#+#+#+#+#+#+#+#+#+#+#+#+#+#+#+#+#+#+#+#+#..",
"..OOOOOOOOOOOOOOOOOOOOOOOOOOOOOOOOOOOOOOOOOOOOOOOOOOOOOOOOOOOO..",
"&&111111111111111111111111111111111111111111111111111111111111&&",
"&&oooooooooooooooooooooooooooooooooooooooooooooooooooooooooooo&&",
"&&XXqXqXq0q;q<qqqXqqq;q4q<qqqXqXqeq:q9qqqXqqq9q:qeqqqXqXqXqXqX&&",
"&&&&&&&&&&&&&&&&&&&&&&&&&&&&&&&&&&&&&&&&&&&&&&&&&&&&&&&&&&&&&&&&",
"&&..8.8.8;848<8.8.8.8,86848.8.8.8;848<8.8.8.848<858.8.8.8.8.8.&&",
"@@..888888888888888888888888888888888888888888888888888888888.@@",
"@@@@.........................................................@@@",
"@@@@@@@@@@@@@@@@@@@@@@@@@@@@@@@@@@@@@@@@@@@@@@@@@@@@@@@@@@@@@@@@",
"@@XXXXXXXXXXXXXXXXXXXXXXXXXXXXXXXXXXXXXXXXXXXXXXXXXXXXXXXXXXXX@@",
"@@oooooooooooooooooooooooooooooooooooooooooooooooooooooooooooo@@",
"  OO1*1*1=1=1-1-1;1;1:1:1>1>1*1*1=1=1-1-1;1;1:1:1>1>1,1,1<1<1O  ",
"  ++O*O*O=O=O-O-O;O;O:O:O>O>O*O*O=O=O-O-O;O;O:O:O>O>O,O,O<O<O+  ",
"  ++O#O#O#O#O#O#O#O#O#O#O#O#O#O#O#O#O#O#O#O#O#O#O#O#O#O#O#O#O+  ",
"  %%#%#%#%#%#%#%#%#%#%#%#%#%#%#%#%#%#%#%#%#%#%#%#%#%#%#%#%#%#%  ",
"  %%%%%%%%%%%%%%%%%%%%%%%%%%%%%%%%%%%%%%%%%%%%%%%%%%%%%%%%%%%%  ",
"  $$$$$$$$$$$$$$$$$$$$$$$$$$$$$$$$$$$$$$$$$$$$$$$$$$$$$$$$$$$$  "
};
