/* XPM */
static char *_0f19485715b4a65ea1be834e09b911fYMYG8dkiOcSqlgad[] = {
/* columns rows colors chars-per-pixel */
"64 64 42 1 ",
"  c #5C341C",
". c #844828",
"X c #945030",
"o c #A85C38",
"O c #CC7448",
"+ c gray14",
"@ c #202020",
"# c #181818",
"$ c gray8",
"% c #2C2C2C",
"& c gray19",
"* c gray22",
"= c #3C3C3C",
"- c #444444",
"; c gray3",
": c #6C6C6C",
"> c #7C7C7C",
", c gray61",
"< c gray55",
"1 c #ACACAC",
"2 c #8C8C00",
"3 c #D8D800",
"4 c #444400",
"5 c #686800",
"6 c black",
"7 c #202000",
"8 c #00008C",
"9 c gray80",
"0 c gainsboro",
"q c #440000",
"w c #D80000",
"e c #0000D8",
"r c #0C0C0C",
"t c #ECECEC",
"y c #BCBCBC",
"u c #C06C44",
"i c #B8643C",
"p c #A05834",
"a c #9C5434",
"s c #8C502C",
"d c #703C20",
"f c white",
/* pixels */
"                                                                ",
"................................................................",
"XXXXXXXXXXXXXXXXXXXXXXXXXXXXXXXXXXXXXXXXXXXXXXXXXXXXXXXXXXXXXXXX",
"oooooooooooooooooooooooooooooooooooooooooooooooooooooooooooooooo",
"OOOOOOOOOOOOOOOOOOOOOOOOOOOOOOOOOOOOOOOOOOOOOOOOOOOOOOOOOOOOOOOO",
"++@@@@#####$$$#####@@@@+++++%%%%&&&&&*****====-----&&&&&&&&%++++",
";:::::::::::::::::::::::;::::::::::::::::::::::::::::::::::::::;",
";:>>>>>>>>>>>>>>>>>>>>>:;:,,,,,,,,,,,,,,,,,,,,,,,,,,,,,,,,,,,,:;",
";:><<<<<<<<<<<<<<<<<<<>:;:,1111111111111111111111111111111111,:;",
";:><,,,,,,,,,,,,,,,,,<>:;:,1111111111111111111111111111111111,:;",
";:><,,,,,,,,,,,,,,,,,<>:;:,1121314151617131415181613121217111,:;",
";:><,,,,,,,,,,,,,,,,,<>:;:,1111111111111111111111111111111111,:;",
";:><,90990990990909,,<>:;:,1121616131316161318151614131q16111,:;",
";:><,,,,,,,,,,,,,,,,,<>:;:,1111111111111111111111111111111111,:;",
";:><,90990990990909,,<>:;:,1171q1212181q15131212131515141q111,:;",
";:><,,,,,,,,,,,,,,,,,<>:;:,1111111111111111111111111111111111,:;",
";:><,90990990909909,,<>:;:,1171q12121517141612121613121217111,:;",
";:><,,,,,,,,,,,,,,,,,<>:;:,1111111111111111111111111111111111,:;",
";:><,90990990909909,,<>:;:,114131q13141613161q1q161q131416111,:;",
";:><,,,,,,,,,,,,,,,,,<>:;:,1111111111111111111111111111111111,:;",
";:><,90990990990909,,<>:;:,115151515141q12121717131515141q111,:;",
";:><,,,,,,,,,,,,,,,,,<>:;:,1111111111111111111111111111111111,:;",
";:><,90990990990909,,<>:;:,1171517151312131415121314151612111,:;",
";:><,,,,,,,,,,,,,,,,,<>:;:,1111111111111111111111111111111111,:;",
";:><,90990990909909,,<>:;:,1161416141612161613121616131312111,:;",
";:><,,,,,,,,,,,,,,,,,<>:;:,1111111111111111111111111111111111,:;",
";:><,90990990909909,,<>:;:,11313131316171q1212171q12121817111,:;",
";:><,,,,,,,,,,,,,,,,,<>:;:,1111111111111111111111111111111111,:;",
";:><,999,999,999,999,<>:;:,1131313131w171q1212171q1212151e111,:;",
";:><,999,999,999,999,<>:;:,1111111111111111111111111111111111,:;",
";:><,,9,,,9,,,9,,,9,,<>:;:,1111111111111111111111111111111111,:;",
";:><,,9,,,9,,,9,,,9,,<>:;:,,,,,,,,,,,,,,,,,,,,,,,,,,,,,,,,,,,,:;",
";:><,,9,,,9,,,9,,,9,,<>:;::::::::::::::::::::::::::::::::::::::;",
";:><,,9,,,9,,,9,,,9,,<>:;;;rrr$$$###@@@+++%%%&&*&&&&&&&&$$rrr;;;",
";:><,,,,,,,,,,,,,,,,,<>:;::::::::::::::::::::::::::::::::::::::;",
";:><,9,9,9,9,9,9,9,9,<>:;:,,,,,,,,,,,,,,,,,,,,,,,,,,,,,,,,,,,,:;",
";:><,0,0,0,0,0,0,0,0,<>:;:,11111111111111111111111111111111111:;",
";:><,9,9,9,9,9,9,9,9,<>:;:,10000000000000000000000000000000001:;",
";:><,9,,,0,0,9,0,9,9,<>:;:,10999999999999999999999999009090001:;",
";:><,0,,,9,9,0,9,0,0,<>:;:,10tttttttttttttttttttttttt009090001:;",
";:><,9,9,9,9,9,9,9,9,<>:;:,10000000000000000000000000009090001:;",
";:><,0,0,0,0,0,0,0,0,<>:;:,10tttt00000t0000tttttttttt009090001:;",
";:><,9,9,9,9,9,9,9,9,<>:;:,10000000000000000000000000009090001:;",
";:><,9,,,9,9,9,9,9,9,<>:;:,10tttttttttttttttttttttttt009090001:;",
";:><,0,,,0,0,0,0,0,0,<>:;:,10111111yyy999000tt000tt00009090001:;",
";:><,9,,,9,9,9,9,9,9,<>:;:,10000000000000000000000000009090001:;",
";:><,9,9,9,9,9,9,9,9,<>:;:,10tttt0y,y0t0,,ytttttttttt009090001:;",
";:><,0,0,0,0,0,0,0,0,<>:;:,10tttt0y,y0t0y,ytttttttttt00ttt0001:;",
";:><,9,9,9,9,9,9,9,9,<>:;:,10000000000000000000000000000t00001:;",
";:><,,,,,,,,,,,,,,,,,<>:;:,10000000000000000000000000000000001:;",
";:><<<<<<<<<<<<<<<<<<<>:;:,11111111111111111111111111111111111:;",
";:>>>>>>>>>>>>>>>>>>>>>:;:,,,,,,,,,,,,,,,,,,,,,,,,,,,,,,,,,,,,:;",
";:::::::::::::::::::::::;::::::::::::::::::::::::::::::::::::::;",
"++@@@@#####$$$#####@@@@+++++%%%%&&&&&*****====&&&&&&&&&&$$rrr;;;",
"OOOOOOOOOOOOOOOOOOOOOOOOOOOOOOOOOOOOOOOOOOOOOOOOOOOOOOOOOOOOOOOO",
"uuuuuuuuuuuuuuuuuuuuuuuuuuuuuuuuuuuuuuuuuuuuuuuuuuuuuuuuuuuuuuuu",
"iiiiiiiiiiiiiiiiiiiiiiiiiiiiiiiiiiiiiiiiiiiiiiiiiiiiiiiiiiiiiiii",
"pppppppppppppppppppppppppppppppppppppppppppppppppppppppppppppppp",
"aaaaaaaaaaaaaaaaaaaaaaaaaaaaaaaaaaaaaaaaaaaaaaaaaaaaaaaaaaaaaaaa",
"XXXXXXXXXXXXXXXXXXXXXXXXXXXXXXXXXXXXXXXXXXXXXXXXXXXXXXXXXXXXXXXX",
"ssssssssssssssssssssssssssssssssssssssssssssssssssssssssssssssss",
"................................................................",
"dddddddddddddddddddddddddddddddddddddddddddddddddddddddddddddddd",
"                                                                "
};
