/* XPM */
static char *_0c0afce89d24056e858237a975fd340mFaAumTs1xZVyfht[] = {
/* columns rows colors chars-per-pixel */
"64 64 37 1 ",
"  c gray22",
". c gray19",
"X c gray14",
"o c #181818",
"O c #0C0C0C",
"+ c gray3",
"@ c #444444",
"# c #606060",
"$ c #6C6C6C",
"% c #7C7C7C",
"& c gray55",
"* c gray61",
"= c #ACACAC",
"- c #BCBCBC",
"; c #3C3C3C",
": c #2C2C2C",
"> c #202020",
", c gray8",
"< c gray80",
"1 c gainsboro",
"2 c #ECECEC",
"3 c gray99",
"4 c #484848",
"5 c #2024B4",
"6 c #FCFC00",
"7 c #686800",
"8 c black",
"9 c #505050",
"0 c #D8D800",
"q c #8C8C00",
"w c #B0B000",
"e c #444400",
"r c #181468",
"t c #045CF0",
"y c #202000",
"u c #200000",
"i c white",
/* pixels */
"                                                                ",
"................................................................",
"XXXXXXXXXXXXXXXXXXXXXXXXXXXXXXXXXXXXXXXXXXXXXXXXXXXXXXXXXXXXXXXX",
"oooooooooooooooooooooooooooooooooooooooooooooooooooooooooooooooo",
"OOOOOOOOOOOOOOOOOOOOOOOOOOOOOOO+++OOOOOOOOOOOOOOOOOOOOOOOO++++++",
"o.o.o.o.o.@.@.@...@......o.o.o.o.o.o.o.oooooo+o+o+o+o+o+o+o+++o+",
"@######################################@########################",
"#$%%%%%%%%%%%%%%%%%%%%%%%%%%%%%%%%%%%%$#$%%%%%%%%%%%%%%%%%%%%%%$",
"@$%&&&&&&&&&&&&&&&&&&&&&&&&&&&&&&&&&&%$@$%&&&&&&&&&&&&&&&&&&&&%$",
".$%&********************************&%$.$%&&&&&&&&&&&&&&&&&&&&%$",
"@$%&*==============================*&%$@$%&&&&&&&&&&&&&&&&&&&&%$",
".$%&*=----------------------------=*&%$.$%&&&&&&&&&&&&&&&&&&&&%$",
"@$%&*=----------------------------=*&%$@$%&&&&&&&&&&&&&&&&&&&&%$",
".$%&*=--;;  ..:::XXX>ooo,,OOO+++--=*&%$.$%&&&&&&&&&&&&&&&&&&&&%$",
".$%&*=--@$$%%&&***=---<<<122233+--=*&%$.$%&&&&&&&&&&&&&&&&&&&&%$",
".$%&*=--@#$$%%&&***=---<<<12223+--=*&%$.$%&&&&&&&&&&&&&&&&&&&&%$",
".$%&*=--@##$$%%&&***=---<<<1222O--=*&%$.$%&&&&&&&&&&&&&&&&&&&&%$",
"o$%&*=--4##5$6%7&7*8*6-6-<<<122O--=*&%$o$%&&&&&&&&&&&&&&&&&&&&%$",
".$%&*=--49###$$%%&&***=---<<<12O--=*&%$.$%&&&&&&&&&&&&&&&&&&&&%$",
"o$%&*=--4490#0$0%q&8*8*7---<<<1,--=*&%$o$%&&&&&&&&&&&&&&&&&&&&%$",
".$%&*=--4449###$$%%&&***=---<<<,--=*&%$.$%&&&&&&&&&&&&&&&&&&&&%$",
"o$%&*=--944w9w#8$e%e&q*7*=---<<o--=*&%$o$%&&&&&&&&&&&&&&&&&&&&%$",
"o$%&*=--#44449###$$%%&&***=---<o--=*&%$o$%&&&&&&&&&&&&&&&&&&&&%$",
"o$%&*=--#@4w4w90#6$e%8&w***=---o--=*&%$o$%&&&&&&&&&&&&&&&&&&&&%$",
"o$%&*=--#@@44449###$$%%&&***=-->--=*&%$o$%&&&&&&&&&&&&&&&&&&&&%$",
"+$%&*=--$@@o484097#q$0%0&&***=-X--=*&%$+$%&&&&&&&&&&&&&&&&&&&&%$",
"o$%&*=--$;@@@44449###$$%%&&***=X--=*&%$o$%&&&&&&&&&&&&&&&&&&&&%$",
"+$%&*===%;;e@r4q4t97#8$r%%&&***X===*&%$+$%&&&&&&&&&&&&&&&&&&&&%$",
"o$%&****% ;;@@@44449###$$%%&&**:****&%$o$%&&&&&&&&&&&&&&&&&&&&%$",
"+$%&&&&&%  7;7@q4e479q#e$$%%&&*:&&&&&%$+$%&&&&&&&&&&&&&&&&&&&%%$",
"+$%%%%%%&.  ;;@@@44449###$$%%&&:%%%%%%$+$%&&&&&&&&&%%%%%%%%%%%$$",
"+#######*..7 7;0@y47409y##$$%%&.#######+$%&&&&&&&&%%############",
"++++++++*:..  ;;@@@44449###$$%%.++++++++$%&&&&&&&%%#++++++++++++",
"@#######*::8.8 0;w@6404w9###$$% #######@$%&&&&&&&%#ooooooooooooo",
".$%%%%%%=:::..  ;;@@@44449###$$ %%%%%%$.$%&&&&&&%#..............",
"@$%&&&&&=X:6:6.7 7;8@046449###$;&&&&&%$@$%&&&&&&%#@..@@@@@@@@@@@",
".$%&****=>X:::..  ;;@@@44449###;****&%$.$%&&&&&&%#X:  3333333333",
".$%&*===->>e:r:q.t 7;8@r44449##@===*&%$.$%&&&&&&%#X: -----------",
".$%&*===->>>X:::..  ;;@@@44449#@===*&%$.$%&&&&&&%#X. @%%%%%%%%%%",
".$%&*===<o>7>7:q:e.7 q;e@@44449@===*&%$.$%&&&&&&%#X.. 4444444444",
".$%&*===<oo>>>X:::..  ;;@@@44444===*&%$.$%&&&&&&%%#:::::::::::::",
".$%&*===1oo7>7>0:y:7.0 y;@@@4444===*&%$.$%&&&&&&&%%#++++++++++++",
".$%&*===1,ooo>>>X:::..  ;;@@@444===*&%$.$%&&&&&&&&$$############",
".$%&*===2O,8ou>0>w:6:0.w ;;@@@44===*&%$.$%&&&&&&&&$%%%%%%%%%%%%%",
".$%&*===2OO,ooo>>>X:::..  ;;@@@9===*&%$.$%&&&&&&&&$%&&&&&&&&&&&&",
".$%&*===2OO6,6o7>7>8:0:6.  ;;@@#===*&%$.$%&&&&&&&&$%&***********",
".$%&*===3+OOO,ooo>>>X:::..  ;;@#===*&%$.$%&&&&&&&&$%&*==========",
".$%&*===3++OOO,ooo>>>X:::..  ;;#===*&%$.$%&&&&&&&&$%&*==========",
".$%&*===33322211<<--===***&%%%$$===*&%$.$%&&&&&&&&$%&*==========",
".$%&*==============================*&%$.$%&&&&&&&&$%&***********",
".$%&********************************&%$.$%&&&&&&&&$%&&&&&&&&&&&&",
".$%&&&&&&&&&&&&&&&&&&&&&&&&&&&&&&&&&&%$.$%%%%%%%%%$%%%%%%%%%%%%%",
"o$%%%%%%%%%%%%%%%%%%%%%%%%%%%%%%%%%%%%$o########################",
"++++++++++++++++++++++++++++++++OOOOOOOOOOOOOOOOOOOOOOOOOOOOOOOO",
"ooooooooooooooooooooooooooooooooooooooooooooooooooooooooooooooo+",
"XXXXXXXXXXXXXXXXXXXXXXXXXXXXXXXXXXXXXXXXXXXXXXXXXXXXXXXXXXXXXXXX",
"................................................................",
"                                                                ",
"................................................................",
"XXXXXXXXXXXXXXXXXXXXXXXXXXXXXXXXXXXXXXXXXXXXXXXXXXXXXXXXXXXXXXXX",
"oooooooooooooooooooooooooooooooooooooooooooooooooooooooooooooooo",
"++++++++++++++++++++++++++++++++++++++++++++++++++++++++++++++++",
"++++++++++++++++++++++++++++++++++++++++++++++++++++++++++++++++",
"++++++++++++++++++++++++++++++++++++++++++++++++++++++++++++++++"
};
