/* XPM */
static char *_4bd718c8bb54fadb1a85fea636c04aeeyNZUyqCezEGl3MU[] = {
/* columns rows colors chars-per-pixel */
"64 64 42 1 ",
"  c #BCBCBC",
". c #ACACAC",
"X c gray61",
"o c gray55",
"O c #7C7C7C",
"+ c #6C6C6C",
"@ c gray99",
"# c gray80",
"$ c #ECECEC",
"% c #8C8C00",
"& c #00008C",
"* c #8C0000",
"= c gainsboro",
"- c #D8D800",
"; c #F0F000",
": c #808000",
"> c #C4C400",
", c #989800",
"< c #B8B800",
"1 c #ACAC00",
"2 c #A0A000",
"3 c #000020",
"4 c #000044",
"5 c #000068",
"6 c #0000B0",
"7 c #0000D8",
"8 c #0000FC",
"9 c black",
"0 c #747400",
"q c #606000",
"w c #484800",
"e c #404000",
"r c #505050",
"t c gray22",
"y c #0C0C0C",
"u c gray3",
"i c #444444",
"p c #181818",
"a c gray14",
"s c gray19",
"d c #606060",
"f c white",
/* pixels */
"        ...............................................         ",
"       ..XXXXXXXXXXXXXXXXXXXXXXXXXXXXXXXXXXXXXXXXXXXXX..        ",
"      .XoooooooooooooooooooooooooooooooooooooooooooooooX.       ",
"     .oOOOOOOOOOOOOOOOOOOOOOOOOOOOOOOOOOOOOOOOOOOOOOOOOOo.      ",
"    .oO+++++++++++++++++++++++++++++++++++++++++++++++++Oo.     ",
"   .XO+@@@@@@@@@@@@@@@@@@@@@@@@@@@@@@@@@@@@@@@@@@@@@@@@@+OX.    ",
"##.XO+#############$%%&&**$$##$$**&&%%$#########$@@@#####+OX.###",
"#.XO+==============$$$$$$$$$==$$$$$$$$$=========$$$$======+OX.##",
"#XO+###############$%%**--$$##$$--**%%$#########$@@@#######+OX##",
"#O+@@@@@@@@@@@@@@@@@@@@@@@@@@@@@@@@@@@@@@@@@@@@@@@@@@@@@@@@@+O##",
"#+;@;@;@;@;@@@@@@@@@@@@@@@@@@@@@@@@@@@@@@@@@@@@@@@@@;@;@;@;@;+##",
"=:-:-:-:-:-:#######################################:-:-:-:-:-:==",
"=%>%>%>%>%>%%XXXXXXXXXXXXXXXXXXXXXXXXXXXXXXXXXXXXX%%>%>%>%>%>%==",
"=,<,<,<,<,<,%:OOOOOOOOOOOOOOOOOOOOOOOOOOOOOOOOOOO:%,<,<,<,<,<,==",
"=1212121212,%:33333444445555&&&&&6666677778888899:%,2121212121==",
"=<%<%<%<%<%,%:9988888777766666&&&&&55554444433333:%,%<%<%<%<%<==",
"$,0,0,0,0,0,%:OOOOOOOOOOOOOOOOOOOOOOOOOOOOOOOOOOO:%,0,0,0,0,0,$$",
"$%q%q%q%q%q%%XXXXXXXXXXXXXXXXXXXXXXXXXXXXXXXXXXXXX%%q%q%q%q%q%$$",
"$:w:w:w:w:w:#######################################:w:w:w:w:w:$$",
"$@e@e@e@e@e@@@@@@@@@@@@@@@@@@@@@@@@@@@@@@@@@@@@@@@@@e@e@e@e@e@$$",
"$@@@@@@@@@@@@@@@@@@@@@@@@@@@@@@@@@@@@@@@@@@@@@@@@@@@@@@@@@@@@@$$",
"@.#############@#@#@%@&@*@$@#@$@%@&@*@$@#@#@#@#@$$@@@@@@$####.@@",
"@.XXX==========@=@=@$@$@$@$@=@$@$@$@$@$@=@=@=@=@$$$$$$$$$=XXX.@@",
"@.#############@#@#@%@*@-@$@#@$@%@*@-@$@#@#@#@#@$$@@@@@@$####.@@",
"@@@@@@@@@@@@@@@@@@@@@@@@@@@@@@@@@@@@@@@@@@@@@@@@@@@@@@@@@@@@@@@@",
"@@;@;@;@;@;@@@@@@@@@@@@@@@@@@@@@@@@@@@@@@@@@@@@@@@@@;@;@;@;@;@@@",
"@:-:-:-:-:-:#######################################:-:-:-:-:-:@@",
"@%>%>%>%>%>%%XXXXXXXXXXXXXXXXXXXXXXXXXXXXXXXXXXXXX%%>%>%>%>%>%@@",
"@,<,<,<,<,<,%:OOOOOOOOOOOOOOOOOOOOOOOOOOOOOOOOOOO:%,<,<,<,<,<,@@",
"@1212121212,%:33333444445555&&&&&6666677778888899:%,2121212121@@",
"@<%<%<%<%<%,%:9988888777766666&&&&&55554444433333:%,%<%<%<%<%<@@",
"@,0,0,0,0,0,%:OOOOOOOOOOOOOOOOOOOOOOOOOOOOOOOOOOO:%,0,0,0,0,0,@@",
"@%q%q%q%q%q%%XXXXXXXXXXXXXXXXXXXXXXXXXXXXXXXXXXXXX%%q%q%q%q%q%@@",
"@:w:w:w:w:w:#######################################:w:w:w:w:w:@@",
"@@e@e@e@e@e@@@@@@@@@@@@@@@@@@@@@@@@@@@@@@@@@@@@@@@@@e@e@e@e@e@@@",
"@@@@@@@@@@@@@@@@@@@@@@@@@@@@@@@@@@@@@@@@@@@@@@@@@@@@@@@@@@@@@@@@",
"@.#############@#@#@%@&@*@$@#@$@%@&@*@$@#@#@#@#@$$@@@@@@$####.@@",
"@.XXX==========@=@=@$@$@$@$@=@$@$@$@$@$@=@=@=@=@$$$$$$$$$=XXX.@@",
"@.#############@#@#@%@*@-@$@#@$@%@*@-@$@#@#@#@#@$$@@@@@@$####.@@",
"@@@@@@@@@@@@@@@@@@@@@@@@@@@@@@@@@@@@@@@@@@@@@@@@@@@@@@@@@@@@@@@@",
"@@;@;@;@;@;@@@@@@@@@@@@@@@@@@@@@@@@@@@@@@@@@@@@@@@@@;@;@;@;@;@@@",
"@:-:-:-:-:-:#######################################:-:-:-:-:-:@@",
"@%>%>%>%>%>%%XXXXXXXXXXXXXXXXXXXXXXXXXXXXXXXXXXXXX%%>%>%>%>%>%@@",
"$,<,<,<,<,<,%:OOOOOOOOOOOOOOOOOOOOOOOOOOOOOOOOOOO:%,<,<,<,<,<,$$",
"$1212121212,%:33333444445555&&&&&6666677778888899:%,2121212121$$",
"$<%<%<%<%<%,%:9988888777766666&&&&&55554444433333:%,%<%<%<%<%<@$",
"$,0,0,0,0,0,%:OOOOOOOOOOOOOOOOOOOOOOOOOOOOOOOOOOO:%,0,0,0,0,0,@$",
"$%q%q%q%q%q%%XXXXXXXXXXXXXXXXXXXXXXXXXXXXXXXXXXXXX%%q%q%q%q%q%@$",
"=:w:w:w:w:w:#######################################:w:w:w:w:w:@=",
"=@e@e@e@e@e@@@@@@@@@@@@@@@@@@@@@@@@@@@@@@@@@@@@@@@@@e@e@e@e@e@@=",
"=@@@@@@@@@@@@@@@@@@@@@@@@@@@@@@@@@@@@@@@@@@@@@@@@@@@@@@@@@@@@@@=",
"==.@@@@@@@@@@@@@@@@@@@@@@@@@@@@@@@@@@@@@@@@@@@@@@@@@@@@@@@@@@.==",
"==.XXX=$$$$$$$$$===@$@$@$@$$==$$$$$@$@$$$$$$$$$===@$@$$$$=XXX.==",
"##.XoO+rtyyyyyyyuuuuuuuuuuuuuuuuyyyyyyyyyuyyyyyyyyyyyyytr+OoX.##",
"##.XoO+ippppppppppppppppppppppppupppppppppupppppppppppppi+OoX.##",
"##.XoO+taaaaaaaaaaaaaaaaaaaaaaaaaaaaaaaaaaaaaaaaaaaaaaaat+OoX.##",
"##.XoO+ssssssssssssssssssssssssssssssssssssssssssssssssss+OoX.##",
"###.oO+tttttttttttttttttttttttttttttttttttttttttttttttttt+Oo.###",
"   .XO+ssssssssssssssssssssssssssssssssssssssssssssssssss+OX.   ",
"    .oOaaaaaaaaaaaaaaaaaaaaaaaaaaaaaaaaaaaaaaaaaaaaaaaaaaOo.    ",
"     .oppppppppppppppppppppppppppppppppppppppppppppppppppo.     ",
"      .uuuuuuuuuuuuuuuuuuuuuuuuuuuuuuuuuuuuuuuuuuuuuuuuuu.      ",
"       duuuuuuuuuuuuuuuuuuuuuuuuuuuuuuuuuuuuuuuuuuuuuuuud       ",
"        duuuuuuuuuuuuuuuuuuuuuuuuuuuuuuuuuuuuuuuuuuuuuud        "
};
