/* XPM */
static char *result[] = {
/* columns rows colors chars-per-pixel */
"32 32 12 1 ",
"  c black",
". c #000001",
"X c #1A1B23",
"o c #24262E",
"O c #24272E",
"+ c #343A46",
"@ c #353A46",
"# c #096B70",
"$ c #40495C",
"% c #0D8A91",
"& c #2EDBF7",
"* c None",
/* pixels */
"********************************",
"********************************",
"********************************",
"********************************",
"********************************",
"********************************",
"********************************",
"********************************",
"**********  ********  **********",
"********** + ****** + **********",
"********** o+  .    o **********",
"********** Ooo+++++@o **********",
"********** oo++++++@+ **********",
"********* ooo++++++++o *********",
"********* oo++++++++++ *********",
"********* oo++&&ooo&&+ *********",
"********* oo++++$X$+++ *********",
"********* oo+++XX$X+++ *********",
"********** oo++++++++o *********",
"********** ##oo++++o# **********",
"********** o+%%%%%%% ***********",
"****  **** +++++++++ ***********",
"*** oo ** o+++ ++ ++ ***********",
"*** ooo  oooo+ ++ ++ ***********",
"**** oooo oooo ++ ++ ***********",
"*****               ************",
"********************************",
"********************************",
"********************************",
"********************************",
"********************************",
"********************************"
};
