/* XPM */
static char *result[] = {
/* columns rows colors chars-per-pixel */
"32 32 12 1 ",
"  c black",
". c #1A1B23",
"X c #24262E",
"o c #24272E",
"O c #343A46",
"+ c #343A47",
"@ c #086B70",
"# c #096B70",
"$ c #40495C",
"% c #0D8A91",
"& c #2EDBF7",
"* c None",
/* pixels */
"********************************",
"********************************",
"********************************",
"********************************",
"********************************",
"********************************",
"********************************",
"********************************",
"**********  ********  **********",
"********** O ****** O **********",
"********** XO       X **********",
"********** XXXOOOOOOX **********",
"********** XXOOOOOOOO **********",
"********* XXXOOOOOOOOX *********",
"********* XXOO&&OOO&&O *********",
"********* XXOO&&XXX&&O *********",
"********* XXO+OO$.$OOO *********",
"********* XXOOO..$.OOO *********",
"********** XXOOOOOOOOX *********",
"********** ##XXOOOOX@ **********",
"********** XO%%%%%%% ***********",
"********** OOOOOOOOO ***********",
"******    XOOO OO OO ***********",
"****  oXXXXXXO OO OO ***********",
"*** XXXX  XXXX OO OO ***********",
"***     *           ************",
"********************************",
"********************************",
"********************************",
"********************************",
"********************************",
"********************************"
};
