/* XPM */
static char *result[] = {
/* columns rows colors chars-per-pixel */
"32 32 11 1 ",
"  c black",
". c #000100",
"X c #1A1B23",
"o c #24262E",
"O c #343A46",
"+ c #343A47",
"@ c #096B70",
"# c #40495C",
"$ c #0D8A91",
"% c #2EDBF7",
"& c None",
/* pixels */
"&&&&&&&&&&&&&&&&&&&&&&&&&&&&&&&&",
"&&&&&&&&&&&&&&&&&&&&&&&&&&&&&&&&",
"&&&&&&&&&&&&&&&&&&&&&&&&&&&&&&&&",
"&&&&&&&&&&&&&&&&&&&&&&&&&&&&&&&&",
"&&&&&&&&&&&&&&&&&&&&&&&&&&&&&&&&",
"&&&&&&&&&&&&&&&&&&&&&&&&&&&&&&&&",
"&&&&&&&&&&&&&&&&&&&&&&&&&&&&&&&&",
"&&&&&&&&&&  &&&&&&&&  &&&&&&&&&&",
"&&&&&&&&&& O &&&&&& O &&&&&&&&&&",
"&&&&&&&&&& oO       o &&&&&&&&&&",
"&&&&&&&&&& oooOOOOOOo &&&&&&&&&&",
"&&&&&&&&&& ooOOOOOOOO &&&&&&&&&&",
"&&&&&&&&& oooOOOOOOOOo &&&&&&&&&",
"&&&&&&&&& ooOO%%OOO%%O &&&&&&&&&",
"&&&&&&&&& ooOO%%ooo%%O &&&&&&&&&",
"&&&&&&&&& ooOOOO#X#OOO &&&&&&&&&",
"&&&&&&&&& ooOOOXX#XOOO &&&&&&&&&",
"&&&&&&&&&& ooOOOOOOOOo &&&&&&&&&",
"&&&&&&&  & @@ooO+OOo@.&&&&&&&&&&",
"&&&&&& oo  oO$$$$$$$ &&&&&&&&&&&",
"&&&&&& oo  OOOOOOOOO &&&&&&&&&&&",
"&&&&&& oo oOO OOO OOO &&&&&&&&&&",
"&&&&&& oo oOO OO o OO &&&&&&&&&&",
"&&&&&&& o oOO   oo    &&&&&&&&&&",
"&&&&&&&&   ooOO ooOO &&&&&&&&&&&",
"&&&&&&&&&&&          &&&&&&&&&&&",
"&&&&&&&&&&&&&&&&&&&&&&&&&&&&&&&&",
"&&&&&&&&&&&&&&&&&&&&&&&&&&&&&&&&",
"&&&&&&&&&&&&&&&&&&&&&&&&&&&&&&&&",
"&&&&&&&&&&&&&&&&&&&&&&&&&&&&&&&&",
"&&&&&&&&&&&&&&&&&&&&&&&&&&&&&&&&",
"&&&&&&&&&&&&&&&&&&&&&&&&&&&&&&&&"
};
