/* XPM */
static char *result[] = {
/* columns rows colors chars-per-pixel */
"32 32 13 1 ",
"  c black",
". c #000100",
"X c #000001",
"o c #1A1B23",
"O c #24262E",
"+ c #24272E",
"@ c #343A46",
"# c #343A47",
"$ c #096B70",
"% c #40495C",
"& c #0D8A91",
"* c #2EDBF7",
"= c None",
/* pixels */
"================================",
"================================",
"================================",
"================================",
"================================",
"================================",
"================================",
"================================",
"==========  ========  ==========",
"========== @ ====== @ ==========",
"========== O@       O ==========",
"========== OO+@@@@@@O ==========",
"========== OO@@@@@@@# ==========",
"========= OOO@@@@@@@@O =========",
"========= OO@@**@@@**@ =========",
"========= OO@@**OOO**@ =========",
"========= OO@@@@%o%@@@ =========",
"========= OO@@@oo%o@@@ =========",
"==========.OO@@@@@@@@O =========",
"========== $$OO@@@@O$ ==========",
"========== O@&&&&&&& ===========",
"======     @@@@@@@@@ ===========",
"===== OOOOO@@@ @@ @@ ===========",
"==== OOO OOOO@X@@ @@ ===========",
"==== OO = OOOO @@ @@ ===========",
"====   ==           ============",
"================================",
"================================",
"================================",
"================================",
"================================",
"================================"
};
