/* XPM */
static char *result[] = {
/* columns rows colors chars-per-pixel */
"32 32 10 1 ",
"  c black",
". c #1A1B23",
"X c #24262E",
"o c #24262F",
"O c #343A46",
"+ c #096B70",
"@ c #40495C",
"# c #0D8A91",
"$ c #2EDBF7",
"% c None",
/* pixels */
"%%%%%%%%%%%%%%%%%%%%%%%%%%%%%%%%",
"%%%%%%%%%%%%%%%%%%%%%%%%%%%%%%%%",
"%%%%%%%%%%%%%%%%%%%%%%%%%%%%%%%%",
"%%%%%%%%%%%%%%%%%%%%%%%%%%%%%%%%",
"%%%%%%%%%%%%%%%%%%%%%%%%%%%%%%%%",
"%%%%%%%%%%%%%%%%%%%%%%%%%%%%%%%%",
"%%%%%%%%%%%%%%%%%%%%%%%%%%%%%%%%",
"%%%%%%%%%%%%%%%%%%%%%%%%%%%%%%%%",
"%%%%%%%%%%  %%%%%%%%  %%%%%%%%%%",
"%%%%%%%%%% O %%%%%% O %%%%%%%%%%",
"%%%%%%%%%% XO       X %%%%%%%%%%",
"%%%%%%%%%% XXXOOOOOOX %%%%%%%%%%",
"%%%%%%%%%% XXOOOOOOOO %%%%%%%%%%",
"%%%%%%%%% XXXOOOOOOOOX %%%%%%%%%",
"%%%%%%%%% XXOO$$OOO$$O %%%%%%%%%",
"%%%%%%%%% XXOO$$XXX$$O %%%%%%%%%",
"%%%%%%%%% XXOOOO@.@OOO %%%%%%%%%",
"%%%%%%%%% XXOOO..@.OOO %%%%%%%%%",
"%%%%%%%  % XXOOOOOOOOX %%%%%%%%%",
"%%%%%% XX  ++XXOOOOX+ %%%%%%%%%%",
"%%%%%% XX  XO####### %%%%%%%%%%%",
"%%%%%% XX  OOOOOOOOO %%%%%%%%%%%",
"%%%%%% XX XOOO OO OO %%%%%%%%%%%",
"%%%%%%% XXXXXO OO OO %%%%%%%%%%%",
"%%%%%%%%  XXoX OO OO %%%%%%%%%%%",
"%%%%%%%%%           %%%%%%%%%%%%",
"%%%%%%%%%%%%%%%%%%%%%%%%%%%%%%%%",
"%%%%%%%%%%%%%%%%%%%%%%%%%%%%%%%%",
"%%%%%%%%%%%%%%%%%%%%%%%%%%%%%%%%",
"%%%%%%%%%%%%%%%%%%%%%%%%%%%%%%%%",
"%%%%%%%%%%%%%%%%%%%%%%%%%%%%%%%%",
"%%%%%%%%%%%%%%%%%%%%%%%%%%%%%%%%"
};
