/* XPM */
static char *result[] = {
/* columns rows colors chars-per-pixel */
"32 32 11 1 ",
"  c black",
". c #1A1B23",
"X c #24262E",
"o c #343A46",
"O c #353A46",
"+ c #343A47",
"@ c #096B70",
"# c #40495C",
"$ c #0D8A91",
"% c #2EDBF7",
"& c None",
/* pixels */
"&&&&&&&&&&&&&&&&&&&&&&&&&&&&&&&&",
"&&&&&&&&&&&&&&&&&&&&&&&&&&&&&&&&",
"&&&&&&&&&&&&&&&&&&&&&&&&&&&&&&&&",
"&&&&&&&&&&&&&&&&&&&&&&&&&&&&&&&&",
"&&&&&&&&&&&&&&&&&&&&&&&&&&&&&&&&",
"&&&&&&&&&&&&&&&&&&&&&&&&&&&&&&&&",
"&&&&&&&&&&  &&&&&&&&  &&&&&&&&&&",
"&&&&&&&&&& o &&&&&& o &&&&&&&&&&",
"&&&&&&&&&& Xo       X &&&&&&&&&&",
"&&&&&&&&&& XXXooooooX &&&&&&&&&&",
"&&&&&&&&&& XXooooOooo &&&&&&&&&&",
"&&&&&&&&& XXXooooooooX &&&&&&&&&",
"&&&&&&&&& XXoo%%ooo%%o &&&&&&&&&",
"&&&&&&&&& XXoo%%XXX%%o &&&&&&&&&",
"&&&&&&&&& XXoooo#.#ooo &&&&&&&&&",
"&&&&&&&&   Xooo..#.ooo &&&&&&&&&",
"&&&&&&&& o XXoooooooo   &&&&&&&&",
"&&&&&&&& oo@@XXooooX@ o &&&&&&&&",
"&&&&&&&&& ooo$$$$$$$ o+ &&&&&&&&",
"&&&&&&&&&  ooXXXXXXXoo &&&&&&&&&",
"&&&&&&&&& XooXXXXXXX  &&&&&&&&&&",
"&&&&&&&&& Xoo XXXX  &&&&&&&&&&&&",
"&&&&&&&   Xooo XXXX &&&&&&&&&&&&",
"&&&&&  XX XXoo XXXX &&&&&&&&&&&&",
"&&&& XXXX  XXoo XXoo &&&&&&&&&&&",
"&&&&     &&          &&&&&&&&&&&",
"&&&&&&&&&&&&&&&&&&&&&&&&&&&&&&&&",
"&&&&&&&&&&&&&&&&&&&&&&&&&&&&&&&&",
"&&&&&&&&&&&&&&&&&&&&&&&&&&&&&&&&",
"&&&&&&&&&&&&&&&&&&&&&&&&&&&&&&&&",
"&&&&&&&&&&&&&&&&&&&&&&&&&&&&&&&&",
"&&&&&&&&&&&&&&&&&&&&&&&&&&&&&&&&"
};
