/* XPM */
static char *result[] = {
/* columns rows colors chars-per-pixel */
"32 32 10 1 ",
"  c black",
". c #000100",
"X c #1A1B23",
"o c #24262E",
"O c #343A46",
"+ c #096B70",
"@ c #B92E2E",
"# c #0D8A91",
"$ c #2EDBF7",
"% c None",
/* pixels */
"%%%%%%%%%%%%%%%%%%%%%%%%%%%%%%%%",
"%%%%%%%%%%%%%%%%%%%%%%%@@%%%%%%%",
"%%%%%%%%%%%%%%%%%%%%%%%@@@%%%%%%",
"%%%%%%%%%%%%%%%%%%%%%%%@@@%%%%%%",
"%%%%%%%%%%%%%%%%%%%%%%%%%%%%%%%%",
"%%%%%%%%%%%%%%%  %%%%%%%%%%%%%%%",
"%%%%%%%%%%%%%% O %%%%%%%%%%%%%%%",
"%%%%%%%%%%%%% Oo %%%%%%%%%%%%%%%",
"%%%%%%%%%%%%% oo   %%%%%%%%%%%%%",
"%%%%%%%%%%%% ooOOOO  %% .%%%%%%%",
"%%%%%%%%%%% oooOOOOOO  O %%%%%%%",
"%%%%%%%%%%% ooOOOOOOOOoO %%%%%%%",
"%%%%%%%%%% ooOO$$OOOOOo %%%%%%%%",
"%%%%%%%%%% ooOO$$ooOOOO %%%%%%%%",
"%%%%%%%%%  ooOOOOooo$$o %%%%%%%%",
"%%%%%%%% O +oOOOXXOo$OO %%%%%%%%",
"%%%%%%%% O o#oOOO@XOOO  %%%%%%%%",
"%%%%%%%% OO O##OOOOOOO O %%%%%%%",
"%%%%%%%   OOOOo#####+ OO %%%%%%%",
"%%%%%% oo  OOoooooooOOO %%%%%%%%",
"%%%%%% oo oOOooooooo   %%%%%%%%%",
"%%%%%% oo oOO oooo  %%%%%%%%%%%%",
"%%%%%%% o oOOO oooo %%%%%%%%%%%%",
"%%%%%%%%  ooOO oooo %%%%%%%%%%%%",
"%%%%%%%%%  ooOO ooOO %%%%%%%%%%%",
"%%%%%%%%%%%          %%%%%%%%%%%",
"%%%%%%%%%%%%%%%%%%%%%%%%%%%%%%%%",
"%%%%%%%%%%%%%%%%%%%%%%%%%%%%%%%%",
"%%%%%%%%%%%%%%%%%%%%%%%%%%%%%%%%",
"%%%%%%%%%%%%%%%%%%%%%%%%%%%%%%%%",
"%%%%%%%%%%%%%%%%%%%%%%%%%%%%%%%%",
"%%%%%%%%%%%%%%%%%%%%%%%%%%%%%%%%"
};
