/* XPM */
static char *result[] = {
/* columns rows colors chars-per-pixel */
"32 32 11 1 ",
"  c black",
". c #010000",
"X c #000001",
"o c #1A1B23",
"O c #24262E",
"+ c #343A46",
"@ c #096B70",
"# c #B92E2E",
"$ c #0D8A91",
"% c #2EDBF7",
"& c None",
/* pixels */
"&&&&&&&&&&&&&&&&&&&&&&&&&&&&&&&&",
"&&&&&&&&&&&&&&&&&&&&&&&&&&&&&&&&",
"&&&&&&&&&&&&&&&&&&&&&&##&&&&&&&&",
"&&&&&&&&&&&&&&&&&&&&&&###&&&&&&&",
"&&&&&&&&&&&&&&&&&&&&&&###&&&&&&&",
"&&&&&&&&&&&&&&&  &&&&&&&&&&&&&&&",
"&&&&&&&&&&&&&& + &&&&&&&&&&&&&&&",
"&&&&&&&&&&&&& +O &&&&&&&&&&&&&&&",
"&&&&&&&&&&&&& OO   &&&&&&&&&&&&&",
"&&&&&&&&&&&&XOO++++  &&  &&&&&&&",
"&&&&&&&&&&& OOO++++++  + &&&&&&&",
"&&&&&&&&&&& OO++++++++O+ &&&&&&&",
"&&&&&&&&&&.OO++%%+++++O &&&&&&&&",
"&&&&&&&&&& OO++%%OO++++ &&&&&&&&",
"&&&&&&&&&  OO++++OOO%%O &&&&&&&&",
"&&&&&&&& + @O+++oo+O%++ &&&&&&&&",
"&&&&&&&& + O$O+++#o+++  &&&&&&&&",
"&&&&&&&& ++ +$$+++++++ + &&&&&&&",
"&&&&&&&&& ++++O$$$$$@ ++ &&&&&&&",
"&&&&&&&&&  ++OOOOOOO+++ &&&&&&&&",
"&&&&&&    O++OOOOOOO   &&&&&&&&&",
"&&&&& OOO O++ OOOO  &&&&&&&&&&&&",
"&&&&& OOO O+++ OOOO &&&&&&&&&&&&",
"&&&&&&    OO++ OOOO &&&&&&&&&&&&",
"&&&&&&&&&  OO++ OO++ &&&&&&&&&&&",
"&&&&&&&&&&&          &&&&&&&&&&&",
"&&&&&&&&&&&&&&&&&&&&&&&&&&&&&&&&",
"&&&&&&&&&&&&&&&&&&&&&&&&&&&&&&&&",
"&&&&&&&&&&&&&&&&&&&&&&&&&&&&&&&&",
"&&&&&&&&&&&&&&&&&&&&&&&&&&&&&&&&",
"&&&&&&&&&&&&&&&&&&&&&&&&&&&&&&&&",
"&&&&&&&&&&&&&&&&&&&&&&&&&&&&&&&&"
};
