/* XPM */
static char *result[] = {
/* columns rows colors chars-per-pixel */
"32 32 10 1 ",
"  c black",
". c #1A1B23",
"X c #24262E",
"o c #343A46",
"O c #343B46",
"+ c #096B70",
"@ c #40495C",
"# c #0D8A91",
"$ c #2EDBF7",
"% c None",
/* pixels */
"%%%%%%%%%%%%%%%%%%%%%%%%%%%%%%%%",
"%%%%%%%%%%%%%%%%%%%%%%%%%%%%%%%%",
"%%%%%%%%%%%%%%%%%%%%%%%%%%%%%%%%",
"%%%%%%%%%%%%%%%%%%%%%%%%%%%%%%%%",
"%%%%%%%%%%%%%%%%%%%%%%%%%%%%%%%%",
"%%%%%%%%%%%%%%%%%%%%%%%%%%%%%%%%",
"%%%%%%%%%%  %%%%%%%%  %%%%%%%%%%",
"%%%%%%%%%% o %%%%%% o %%%%%%%%%%",
"%%%%%%%%%% Xo       X %%%%%%%%%%",
"%%%%%%%%%% XXXooooooX %%%%%%%%%%",
"%%%%%%%%%% XXoooooooo %%%%%%%%%%",
"%%%%%%%%% XXXooooooooX %%%%%%%%%",
"%%%%%%%%% XXoo$$oOo$$o %%%%%%%%%",
"%%%%%%%%% XXoo$$XXX$$o %%%%%%%%%",
"%%%%%%%%% XXoooo@.@ooo %%%%%%%%%",
"%%%%%%%%% XXooo..@.ooo %%%%%%%%%",
"%%%%%%%%   XXoooooooo   %%%%%%%%",
"%%%%%%%% o ++XXooooX+ o %%%%%%%%",
"%%%%%%%% ooXo####### oo %%%%%%%%",
"%%%%%%%%% oooXXXXXXXoo %%%%%%%%%",
"%%%%%%%%%   oXXXXXXX  %%%%%%%%%%",
"%%%%%  %% Xoo XXXX  %%%%%%%%%%%%",
"%%%% XX % Xooo XXXX %%%%%%%%%%%%",
"%%%% XXX  XXoo XXXX %%%%%%%%%%%%",
"%%%%% XXXX XXoo XXoo %%%%%%%%%%%",
"%%%%%%               %%%%%%%%%%%",
"%%%%%%%%%%%%%%%%%%%%%%%%%%%%%%%%",
"%%%%%%%%%%%%%%%%%%%%%%%%%%%%%%%%",
"%%%%%%%%%%%%%%%%%%%%%%%%%%%%%%%%",
"%%%%%%%%%%%%%%%%%%%%%%%%%%%%%%%%",
"%%%%%%%%%%%%%%%%%%%%%%%%%%%%%%%%",
"%%%%%%%%%%%%%%%%%%%%%%%%%%%%%%%%"
};
