/* XPM */
static char *result[] = {
/* columns rows colors chars-per-pixel */
"32 32 11 1 ",
"  c black",
". c #1A1B23",
"X c #24262E",
"o c #343A46",
"O c #353A46",
"+ c #343B46",
"@ c #096B70",
"# c #B92E2E",
"$ c #0D8A91",
"% c #2EDBF7",
"& c None",
/* pixels */
"&&&&&&&&&&&&&&&&&&&&&&&&&&&&&&&&",
"&&&&&&&&&&&&&&&&&&&&&&&&&&&&&&&&",
"&&&&&&&&&&&&&&&&&&&&&&&&&&&&&&&&",
"&&&&&&&&&&&&&&&&&&&&&&&&&&&&&&&&",
"&&&&&&&&&&&&&&&&&&&&&#&&&&&&&&&&",
"&&&&&&&&&&&&&&&  &&&&##&&&&&&&&&",
"&&&&&&&&&&&&&& o &&&&&&&&&&&&&&&",
"&&&&&&&&&&&&& oX &&&&&&&&&&&&&&&",
"&&&&&&&&&&&&& XX   &&&&&&&&&&&&&",
"&&&&&&&&&&&& XXoooo  &&  &&&&&&&",
"&&&&&&&&&&& XXXoooooo  o &&&&&&&",
"&&&&&&&&&&& XXooooooooXo &&&&&&&",
"&&&&&&&&&& XXoo%%oooooX &&&&&&&&",
"&&&&&&&&&& XXoo%%XXoooo &&&&&&&&",
"&&&&&&&&&  XXooooXXX%%X &&&&&&&&",
"&&&&&&&& o @Xooo..oX%Oo &&&&&&&&",
"&&&&&&&& o X$Xooo#.ooo  &&&&&&&&",
"&&&&&&&& oo o$$ooooooo o &&&&&&&",
"&&&&&&&&& ooooX$$$$$@ oo &&&&&&&",
"&&&&&&&&&  ooXXXXXXXooo &&&&&&&&",
"&&&&&&&&& XooXXXXXXX   &&&&&&&&&",
"&&&&&&&   Xoo XXXX  &&&&&&&&&&&&",
"&&&&&& XX Xooo XXXX &&&&&&&&&&&&",
"&&&&& XXX XXo+ XXXX &&&&&&&&&&&&",
"&&&&& XX & XXoo XXoo &&&&&&&&&&&",
"&&&&&   &&&          &&&&&&&&&&&",
"&&&&&&&&&&&&&&&&&&&&&&&&&&&&&&&&",
"&&&&&&&&&&&&&&&&&&&&&&&&&&&&&&&&",
"&&&&&&&&&&&&&&&&&&&&&&&&&&&&&&&&",
"&&&&&&&&&&&&&&&&&&&&&&&&&&&&&&&&",
"&&&&&&&&&&&&&&&&&&&&&&&&&&&&&&&&",
"&&&&&&&&&&&&&&&&&&&&&&&&&&&&&&&&"
};
