/* XPM */
static char *result[] = {
/* columns rows colors chars-per-pixel */
"32 32 13 1 ",
"  c black",
". c #010000",
"X c #000001",
"o c #1A1B23",
"O c #24262E",
"+ c #343A46",
"@ c #353A46",
"# c #343B46",
"$ c #096B70",
"% c #40495C",
"& c #0D8A91",
"* c #2EDBF7",
"= c None",
/* pixels */
"================================",
"================================",
"================================",
"================================",
"================================",
"================================",
"==========  ========  ==========",
"========== + ====== + ==========",
"========== O+    X  O ==========",
"========== OOO+++++#O ==========",
"========== OO+++++@++ ==========",
"========= OOO++++++++O =========",
"========= OO++**+++**+ =========",
"========= OO++**OOO**+ =========",
"========= OO++++%o%+++ =========",
"========= OO+++oo%o+++ =========",
"========== OO++++++++O =========",
"========== $$OO++++O$.==========",
"=======    O+&&&&&&&    ========",
"======  +++++OOOOOOO+++ ========",
"===== O    ++OOOOOOO    ========",
"===== OO  O++ OOOO  ============",
"===== OOO O+++ OOOO ============",
"====== OO OO++ OOOO ============",
"=======  O OO++ OO++ ===========",
"=========            ===========",
"================================",
"================================",
"================================",
"================================",
"================================",
"================================"
};
